;FLAVOR:Marlin
;TIME:8717
;Filament used: 3.79611m
;Layer height: 0.1
;MINX:88.335
;MINY:86.621
;MINZ:0.1
;MAXX:135.665
;MAXY:137.415
;MAXZ:30
;Generated with Cura_SteamEngine 4.2.1
M140 S60
M105
M190 S60
M104 S200
M105
M109 S200
M82 ;absolute extrusion mode
G21 ;metric values
G90 ;absolute positioning
M82 ;set extruder to absolute mode
M107 ;start with the fan off
G28 X0 Y0 ;move X/Y to min endstops
G28 Z0 ;move Z to min endstops
G1 Z15.0 F50 ;move the platform down 15mm
G92 E0 ;zero the extruded length
G1 F200 E3 ;extrude 3mm of feed stock
G92 E0 ;zero the extruded length again
G1 F50
M117 Printing...
G5
M141 S28
G92 E0
G92 E0
G1 F2400 E-6
;LAYER_COUNT:300
;LAYER:0
M106 S255
M204 S3000
M205 X10 Y10
;MESH:Borotva.Tarto.stl
G0 F1500 X108.676 Y123.917 Z0.1
M204 S1800
M205 X8 Y8
;TYPE:WALL-INNER
G1 F2400 E0
G1 F1500 X110.599 Y124.425 E0.04631
G1 X112.591 Y124.512 E0.09273
G1 X114.556 Y124.174 E0.13915
G1 X116.395 Y123.424 E0.18539
G1 X118.01 Y122.318 E0.23096
G1 X119.389 Y120.865 E0.2776
G1 X120.425 Y119.147 E0.32431
G1 X121.061 Y117.263 E0.37061
G1 X121.27 Y115.376 E0.41481
G1 X121.235 Y114.39 E0.43778
G1 X121.101 Y113.471 E0.4594
G1 X120.901 Y112.656 E0.47894
G1 X120.9 Y108.085 E0.58536
G1 X125.571 Y90.22 E1.01528
G1 X129.341 Y90.215 E1.10305
G1 X133.6 Y90.226 E1.20221
G1 X133.6 Y135.35 E2.25279
G1 X90.68 Y135.35 E3.25206
G1 X90.4 Y135.35 E3.25858
G1 X90.4 Y135.07 E3.2628
G1 X90.402 Y90.228 E4.30681
G1 X98.427 Y90.208 E4.49365
G1 X103.098 Y108.079 E4.9237
G1 X103.1 Y112.739 E5.0322
G1 X102.758 Y114.43 E5.07237
G1 X102.796 Y116.441 E5.11919
G1 X103.265 Y118.383 E5.16571
G1 X104.14 Y120.186 E5.21237
G1 X105.349 Y121.717 E5.25779
G1 X106.882 Y122.989 E5.30417
G1 X108.676 Y123.917 E5.35119
M204 S3000
M205 X10 Y10
G0 X108.879 Y123.391
M204 S1800
M205 X8 Y8
G1 X110.684 Y123.868 E5.39466
G1 X112.555 Y123.95 E5.43826
G1 X114.401 Y123.632 E5.48187
G1 X116.128 Y122.928 E5.52529
G1 X117.645 Y121.889 E5.5681
G1 X118.941 Y120.524 E5.61192
G1 X119.914 Y118.91 E5.6558
G1 X120.511 Y117.141 E5.69927
G1 X120.709 Y115.355 E5.74111
G1 X120.676 Y114.44 E5.76242
G1 X120.551 Y113.578 E5.7827
G1 X120.341 Y112.725 E5.80315
G1 X120.34 Y108.012 E5.91288
G1 X125.138 Y89.661 E6.35449
G1 X129.342 Y89.655 E6.45237
G1 X134.16 Y89.668 E6.56455
G1 X134.16 Y135.91 E7.64116
G1 X90.12 Y135.91 E8.6665
G1 X89.84 Y135.91 E8.67302
G1 X89.84 Y135.63 E8.67724
G1 X89.842 Y89.669 E9.74731
G1 X98.855 Y89.647 E9.95715
G1 X98.887 Y89.751 E9.95968
G1 X103.658 Y108.006 E10.39897
G1 X103.66 Y112.796 E10.51049
G1 X103.319 Y114.481 E10.55052
G1 X103.355 Y116.369 E10.59448
G1 X103.795 Y118.193 E10.63817
G1 X104.617 Y119.887 E10.68201
G1 X105.752 Y121.324 E10.72464
G1 X107.193 Y122.519 E10.76823
G1 X108.879 Y123.391 E10.81242
M204 S3000
M205 X10 Y10
G0 X108.844 Y123.484
G0 X107.171 Y122.552
G0 X105.724 Y121.351
G0 X104.584 Y119.908
G0 X103.758 Y118.206
G0 X103.361 Y116.558
G0 X103.234 Y114.402
G0 X103.88 Y114.532
M204 S1800
M205 X8 Y8
;TYPE:WALL-OUTER
G1 X103.914 Y116.297 E10.85352
G1 X104.325 Y118.003 E10.89437
G1 X105.094 Y119.588 E10.93539
G1 X106.155 Y120.931 E10.97524
G1 X107.504 Y122.049 E11.01603
G1 X109.082 Y122.865 E11.05739
G1 X110.769 Y123.311 E11.09802
G1 X112.519 Y123.388 E11.1388
G1 X114.246 Y123.09 E11.1796
G1 X115.861 Y122.432 E11.2202
G1 X117.28 Y121.46 E11.26025
G1 X118.493 Y120.183 E11.30126
G1 X119.403 Y118.673 E11.3423
G1 X119.961 Y117.019 E11.38294
G1 X120.148 Y115.334 E11.42241
G1 X120.117 Y114.49 E11.44208
G1 X120.001 Y113.685 E11.46101
G1 X119.806 Y112.893 E11.48
G1 X119.78 Y112.825 E11.4817
G1 X119.78 Y107.939 E11.59545
G1 X124.705 Y89.102 E12.04876
G1 X129.343 Y89.095 E12.15674
G1 X134.701 Y89.11 E12.28149
G1 X134.72 Y89.266 E12.28515
G1 X134.72 Y136.47 E13.38416
G1 X89.28 Y136.47 E14.4421
G1 X89.28 Y89.694 E15.53114
G1 X89.301 Y89.11 E15.54474
G1 X99.27 Y89.086 E15.77684
G1 X99.429 Y89.609 E15.78957
G1 X104.218 Y107.933 E16.23052
G1 X104.22 Y112.853 E16.34507
G1 X103.88 Y114.532 E16.38495
M204 S3000
M205 X10 Y10
G0 X103.883 Y114.732
G0 X103.223 Y114.743
G0 X102.206 Y114.38
M204 S1800
M205 X8 Y8
;TYPE:SKIN
G1 X102.248 Y116.512 E16.4346
G1 X102.744 Y118.57 E16.48389
G1 X103.671 Y120.48 E16.53332
G1 X104.954 Y122.104 E16.5815
G1 X106.576 Y123.45 E16.63057
G1 X108.477 Y124.433 E16.6804
G1 X110.516 Y124.971 E16.7295
G1 X112.626 Y125.064 E16.77867
G1 X114.709 Y124.706 E16.82788
G1 X116.657 Y123.911 E16.87686
G1 X118.369 Y122.739 E16.92517
G1 X119.829 Y121.201 E16.97454
G1 X120.927 Y119.379 E17.02407
G1 X121.601 Y117.383 E17.07312
G1 X121.822 Y115.397 E17.11964
G1 X121.783 Y114.341 E17.14424
G1 X121.641 Y113.365 E17.16721
G1 X121.451 Y112.591 E17.18576
G1 X121.45 Y108.156 E17.28902
G1 X125.995 Y90.77 E17.7074
G1 X129.339 Y90.765 E17.78526
G1 X133.05 Y90.774 E17.87166
G1 X133.05 Y134.8 E18.89668
G1 X90.95 Y134.8 E19.87685
G1 X90.952 Y90.776 E20.90182
G1 X98.003 Y90.759 E21.06598
G1 X102.548 Y108.15 E21.48448
G1 X102.55 Y112.684 E21.59004
G1 X102.206 Y114.38 E21.63033
M204 S3000
M205 X10 Y10
G0 X91.773 Y134.539
M204 S1800
M205 X8 Y8
G1 X91.21 Y133.976 E21.64887
M204 S3000
M205 X10 Y10
G0 X91.21 Y133.184
M204 S1800
M205 X8 Y8
G1 X92.565 Y134.539 E21.69349
M204 S3000
M205 X10 Y10
G0 X93.357 Y134.539
M204 S1800
M205 X8 Y8
G1 X91.21 Y132.392 E21.76418
M204 S3000
M205 X10 Y10
G0 X91.21 Y131.6
M204 S1800
M205 X8 Y8
G1 X94.149 Y134.539 E21.86095
M204 S3000
M205 X10 Y10
G0 X94.941 Y134.539
M204 S1800
M205 X8 Y8
G1 X91.21 Y130.808 E21.98379
M204 S3000
M205 X10 Y10
G0 X91.21 Y130.016
M204 S1800
M205 X8 Y8
G1 X95.733 Y134.539 E22.13272
M204 S3000
M205 X10 Y10
G0 X96.525 Y134.539
M204 S1800
M205 X8 Y8
G1 X91.21 Y129.224 E22.30772
M204 S3000
M205 X10 Y10
G0 X91.21 Y128.432
M204 S1800
M205 X8 Y8
G1 X97.316 Y134.539 E22.50878
M204 S3000
M205 X10 Y10
G0 X98.108 Y134.539
M204 S1800
M205 X8 Y8
G1 X91.21 Y127.64 E22.73592
M204 S3000
M205 X10 Y10
G0 X91.21 Y126.848
M204 S1800
M205 X8 Y8
G1 X98.9 Y134.539 E22.98913
M204 S3000
M205 X10 Y10
G0 X99.692 Y134.539
M204 S1800
M205 X8 Y8
G1 X91.21 Y126.056 E23.26843
M204 S3000
M205 X10 Y10
G0 X91.21 Y125.264
M204 S1800
M205 X8 Y8
G1 X100.484 Y134.539 E23.5738
M204 S3000
M205 X10 Y10
G0 X101.276 Y134.539
M204 S1800
M205 X8 Y8
G1 X91.21 Y124.472 E23.90525
M204 S3000
M205 X10 Y10
G0 X91.21 Y123.68
M204 S1800
M205 X8 Y8
G1 X102.068 Y134.539 E24.26277
M204 S3000
M205 X10 Y10
G0 X102.86 Y134.539
M204 S1800
M205 X8 Y8
G1 X91.21 Y122.888 E24.64638
M204 S3000
M205 X10 Y10
G0 X91.21 Y122.096
M204 S1800
M205 X8 Y8
G1 X103.652 Y134.539 E25.05606
M204 S3000
M205 X10 Y10
G0 X104.444 Y134.539
M204 S1800
M205 X8 Y8
G1 X91.21 Y121.304 E25.49181
M204 S3000
M205 X10 Y10
G0 X91.21 Y120.512
M204 S1800
M205 X8 Y8
G1 X105.236 Y134.539 E25.95365
M204 S3000
M205 X10 Y10
G0 X106.028 Y134.539
M204 S1800
M205 X8 Y8
G1 X91.21 Y119.72 E26.44156
M204 S3000
M205 X10 Y10
G0 X91.21 Y118.928
M204 S1800
M205 X8 Y8
G1 X106.82 Y134.539 E26.95555
M204 S3000
M205 X10 Y10
G0 X107.612 Y134.539
M204 S1800
M205 X8 Y8
G1 X91.21 Y118.137 E27.4956
M204 S3000
M205 X10 Y10
G0 X91.21 Y117.345
M204 S1800
M205 X8 Y8
G1 X108.404 Y134.539 E28.06172
M204 S3000
M205 X10 Y10
G0 X109.196 Y134.539
M204 S1800
M205 X8 Y8
G1 X91.21 Y116.553 E28.65393
M204 S3000
M205 X10 Y10
G0 X91.21 Y115.761
M204 S1800
M205 X8 Y8
G1 X109.988 Y134.539 E29.27221
M204 S3000
M205 X10 Y10
G0 X110.78 Y134.539
M204 S1800
M205 X8 Y8
G1 X91.21 Y114.969 E29.91657
M204 S3000
M205 X10 Y10
G0 X91.21 Y114.177
M204 S1800
M205 X8 Y8
G1 X111.572 Y134.539 E30.58701
M204 S3000
M205 X10 Y10
G0 X112.364 Y134.539
M204 S1800
M205 X8 Y8
G1 X91.21 Y113.385 E31.28352
M204 S3000
M205 X10 Y10
G0 X91.211 Y112.594
M204 S1800
M205 X8 Y8
G1 X113.156 Y134.539 E32.00608
M204 S3000
M205 X10 Y10
G0 X113.948 Y134.539
M204 S1800
M205 X8 Y8
G1 X91.211 Y111.802 E32.75471
M204 S3000
M205 X10 Y10
G0 X91.211 Y111.01
M204 S1800
M205 X8 Y8
G1 X114.74 Y134.539 E33.52943
M204 S3000
M205 X10 Y10
G0 X115.532 Y134.539
M204 S1800
M205 X8 Y8
G1 X91.211 Y110.218 E34.33021
M204 S3000
M205 X10 Y10
G0 X91.211 Y109.426
M204 S1800
M205 X8 Y8
G1 X116.324 Y134.539 E35.15708
M204 S3000
M205 X10 Y10
G0 X117.115 Y134.539
M204 S1800
M205 X8 Y8
G1 X105.335 Y122.758 E35.54496
G1 X105.265 Y122.688
M204 S3000
M205 X10 Y10
G0 X104.405 Y121.828
M204 S1800
M205 X8 Y8
G1 X91.211 Y108.634 E35.97939
M204 S3000
M205 X10 Y10
G0 X91.211 Y107.842
M204 S1800
M205 X8 Y8
G1 X102.942 Y119.573 E36.36564
G1 X103.012 Y119.643
M204 S3000
M205 X10 Y10
G0 X102.395 Y118.234
M204 S1800
M205 X8 Y8
G1 X91.211 Y107.05 E36.73388
M204 S3000
M205 X10 Y10
G0 X91.211 Y106.258
M204 S1800
M205 X8 Y8
G1 X102.144 Y117.191 E37.09386
M204 S3000
M205 X10 Y10
G0 X101.983 Y116.238
M204 S1800
M205 X8 Y8
G1 X91.211 Y105.466 E37.44854
M204 S3000
M205 X10 Y10
G0 X91.211 Y104.674
M204 S1800
M205 X8 Y8
G1 X101.966 Y115.43 E37.80267
M204 S3000
M205 X10 Y10
G0 X101.95 Y114.622
M204 S1800
M205 X8 Y8
G1 X91.211 Y103.882 E38.15628
M204 S3000
M205 X10 Y10
G0 X91.211 Y103.09
M204 S1800
M205 X8 Y8
G1 X102.035 Y113.914 E38.51267
M204 S3000
M205 X10 Y10
G0 X102.169 Y113.256
M204 S1800
M205 X8 Y8
G1 X91.211 Y102.298 E38.87347
M204 S3000
M205 X10 Y10
G0 X91.211 Y101.506
M204 S1800
M205 X8 Y8
G1 X102.29 Y112.585 E39.23826
M204 S3000
M205 X10 Y10
G0 X102.29 Y111.793
M204 S1800
M205 X8 Y8
G1 X91.211 Y100.714 E39.60304
M204 S3000
M205 X10 Y10
G0 X91.211 Y99.922
M204 S1800
M205 X8 Y8
G1 X102.289 Y111 E39.9678
M204 S3000
M205 X10 Y10
G0 X102.289 Y110.208
M204 S1800
M205 X8 Y8
G1 X91.211 Y99.13 E40.33255
M204 S3000
M205 X10 Y10
G0 X91.211 Y98.338
M204 S1800
M205 X8 Y8
G1 X102.288 Y109.416 E40.69728
M204 S3000
M205 X10 Y10
G0 X102.288 Y108.624
M204 S1800
M205 X8 Y8
G1 X91.211 Y97.546 E41.06202
M204 S3000
M205 X10 Y10
G0 X91.211 Y96.754
M204 S1800
M205 X8 Y8
G1 X102.163 Y107.707 E41.42264
M204 S3000
M205 X10 Y10
G0 X101.883 Y106.635
M204 S1800
M205 X8 Y8
G1 X91.211 Y95.962 E41.77404
M204 S3000
M205 X10 Y10
G0 X91.211 Y95.17
M204 S1800
M205 X8 Y8
G1 X101.602 Y105.562 E42.11619
M204 S3000
M205 X10 Y10
G0 X101.322 Y104.49
M204 S1800
M205 X8 Y8
G1 X91.211 Y94.378 E42.44912
M204 S3000
M205 X10 Y10
G0 X91.211 Y93.586
M204 S1800
M205 X8 Y8
G1 X101.042 Y103.418 E42.77283
M204 S3000
M205 X10 Y10
G0 X100.762 Y102.345
M204 S1800
M205 X8 Y8
G1 X91.211 Y92.795 E43.08729
M204 S3000
M205 X10 Y10
G0 X91.211 Y92.003
M204 S1800
M205 X8 Y8
G1 X100.481 Y101.273 E43.39251
M204 S3000
M205 X10 Y10
G0 X100.201 Y100.201
M204 S1800
M205 X8 Y8
G1 X91.211 Y91.211 E43.68852
M204 S3000
M205 X10 Y10
G0 X91.826 Y91.034
M204 S1800
M205 X8 Y8
G1 X99.921 Y99.129 E43.95505
M204 S3000
M205 X10 Y10
G0 X99.641 Y98.057
M204 S1800
M205 X8 Y8
G1 X92.616 Y91.032 E44.18636
M204 S3000
M205 X10 Y10
G0 X93.406 Y91.03
M204 S1800
M205 X8 Y8
G1 X99.36 Y96.984 E44.3824
M204 S3000
M205 X10 Y10
G0 X99.08 Y95.912
M204 S1800
M205 X8 Y8
G1 X94.196 Y91.028 E44.54321
M204 S3000
M205 X10 Y10
G0 X94.986 Y91.026
M204 S1800
M205 X8 Y8
G1 X98.8 Y94.84 E44.66878
M204 S3000
M205 X10 Y10
G0 X98.519 Y93.768
M204 S1800
M205 X8 Y8
G1 X95.776 Y91.025 E44.7591
M204 S3000
M205 X10 Y10
G0 X96.566 Y91.023
M204 S1800
M205 X8 Y8
G1 X98.239 Y92.696 E44.81419
M204 S3000
M205 X10 Y10
G0 X97.959 Y91.623
M204 S1800
M205 X8 Y8
G1 X97.357 Y91.021 E44.83401
M204 S3000
M205 X10 Y10
G0 X103.758 Y118.206
G0 X104.584 Y119.908
G0 X105.724 Y121.351
G0 X107.171 Y122.552
G0 X108.865 Y123.428
G0 X110.678 Y123.907
G0 X112.557 Y123.989
G0 X114.412 Y123.67
G0 X116.146 Y122.963
G0 X117.67 Y121.919
G0 X118.972 Y120.548
G0 X119.95 Y118.926
G0 X120.49 Y117.327
G0 X124.323 Y98.188
M204 S1800
M205 X8 Y8
G1 X132.789 Y106.655 E45.11277
M204 S3000
M205 X10 Y10
G0 X132.789 Y107.446
M204 S1800
M205 X8 Y8
G1 X124.159 Y98.816 E45.39692
M204 S3000
M205 X10 Y10
G0 X123.994 Y99.443
M204 S1800
M205 X8 Y8
G1 X132.789 Y108.238 E45.68651
M204 S3000
M205 X10 Y10
G0 X132.789 Y109.03
M204 S1800
M205 X8 Y8
G1 X123.83 Y100.071 E45.98149
M204 S3000
M205 X10 Y10
G0 X123.666 Y100.699
M204 S1800
M205 X8 Y8
G1 X132.789 Y109.822 E46.28187
M204 S3000
M205 X10 Y10
G0 X132.789 Y110.614
M204 S1800
M205 X8 Y8
G1 X123.502 Y101.327 E46.58765
M204 S3000
M205 X10 Y10
G0 X123.338 Y101.955
M204 S1800
M205 X8 Y8
G1 X132.789 Y111.406 E46.89884
M204 S3000
M205 X10 Y10
G0 X132.789 Y112.198
M204 S1800
M205 X8 Y8
G1 X123.174 Y102.583 E47.21542
M204 S3000
M205 X10 Y10
G0 X123.01 Y103.211
M204 S1800
M205 X8 Y8
G1 X132.789 Y112.99 E47.5374
M204 S3000
M205 X10 Y10
G0 X132.789 Y113.782
M204 S1800
M205 X8 Y8
G1 X122.846 Y103.839 E47.86478
M204 S3000
M205 X10 Y10
G0 X122.682 Y104.467
M204 S1800
M205 X8 Y8
G1 X132.789 Y114.574 E48.19756
M204 S3000
M205 X10 Y10
G0 X132.789 Y115.366
M204 S1800
M205 X8 Y8
G1 X122.517 Y105.094 E48.53578
M204 S3000
M205 X10 Y10
G0 X122.353 Y105.722
M204 S1800
M205 X8 Y8
G1 X132.789 Y116.158 E48.87939
M204 S3000
M205 X10 Y10
G0 X132.789 Y116.95
M204 S1800
M205 X8 Y8
G1 X122.189 Y106.35 E49.22841
M204 S3000
M205 X10 Y10
G0 X122.025 Y106.978
M204 S1800
M205 X8 Y8
G1 X132.789 Y117.742 E49.58282
M204 S3000
M205 X10 Y10
G0 X132.789 Y118.534
M204 S1800
M205 X8 Y8
G1 X121.861 Y107.606 E49.94263
M204 S3000
M205 X10 Y10
G0 X121.709 Y108.246
M204 S1800
M205 X8 Y8
G1 X132.789 Y119.326 E50.30745
M204 S3000
M205 X10 Y10
G0 X132.789 Y120.118
M204 S1800
M205 X8 Y8
G1 X121.709 Y109.037 E50.67229
M204 S3000
M205 X10 Y10
G0 X121.709 Y109.829
M204 S1800
M205 X8 Y8
G1 X132.789 Y120.91 E51.03712
M204 S3000
M205 X10 Y10
G0 X132.789 Y121.702
M204 S1800
M205 X8 Y8
G1 X121.709 Y110.621 E51.40196
M204 S3000
M205 X10 Y10
G0 X121.709 Y111.413
M204 S1800
M205 X8 Y8
G1 X132.789 Y122.494 E51.76679
M204 S3000
M205 X10 Y10
G0 X132.789 Y123.286
M204 S1800
M205 X8 Y8
G1 X121.709 Y112.205 E52.13163
M204 S3000
M205 X10 Y10
G0 X121.852 Y113.141
M204 S1800
M205 X8 Y8
G1 X132.789 Y124.078 E52.49174
M204 S3000
M205 X10 Y10
G0 X132.789 Y124.87
M204 S1800
M205 X8 Y8
G1 X122.007 Y114.088 E52.84674
M204 S3000
M205 X10 Y10
G0 X122.065 Y114.937
M204 S1800
M205 X8 Y8
G1 X132.789 Y125.662 E53.19986
M204 S3000
M205 X10 Y10
G0 X132.789 Y126.454
M204 S1800
M205 X8 Y8
G1 X122.048 Y115.712 E53.55353
M204 S3000
M205 X10 Y10
G0 X121.968 Y116.424
M204 S1800
M205 X8 Y8
G1 X132.789 Y127.245 E53.90982
M204 S3000
M205 X10 Y10
G0 X132.789 Y128.037
M204 S1800
M205 X8 Y8
G1 X121.888 Y117.136 E54.26875
M204 S3000
M205 X10 Y10
G0 X121.739 Y117.779
M204 S1800
M205 X8 Y8
G1 X132.789 Y128.829 E54.63258
M204 S3000
M205 X10 Y10
G0 X132.789 Y129.621
M204 S1800
M205 X8 Y8
G1 X121.54 Y118.372 E55.00296
M204 S3000
M205 X10 Y10
G0 X121.34 Y118.965
M204 S1800
M205 X8 Y8
G1 X132.789 Y130.413 E55.37991
M204 S3000
M205 X10 Y10
G0 X132.789 Y131.205
M204 S1800
M205 X8 Y8
G1 X121.13 Y119.546 E55.76379
M204 S3000
M205 X10 Y10
G0 X120.831 Y120.039
M204 S1800
M205 X8 Y8
G1 X132.789 Y131.997 E56.15752
M204 S3000
M205 X10 Y10
G0 X132.789 Y132.789
M204 S1800
M205 X8 Y8
G1 X120.534 Y120.534 E56.56103
M204 S3000
M205 X10 Y10
G0 X120.235 Y121.027
M204 S1800
M205 X8 Y8
G1 X132.789 Y133.581 E56.97438
M204 S3000
M205 X10 Y10
G0 X132.789 Y134.373
M204 S1800
M205 X8 Y8
G1 X119.908 Y121.492 E57.3985
M204 S3000
M205 X10 Y10
G0 X119.522 Y121.898
M204 S1800
M205 X8 Y8
G1 X132.163 Y134.539 E57.81471
M204 S3000
M205 X10 Y10
G0 X131.371 Y134.539
M204 S1800
M205 X8 Y8
G1 X119.137 Y122.305 E58.21753
M204 S3000
M205 X10 Y10
G0 X118.751 Y122.711
M204 S1800
M205 X8 Y8
G1 X130.579 Y134.539 E58.60697
M204 S3000
M205 X10 Y10
