;FLAVOR:Marlin
;TIME:3916
;Filament used: 3.77975m
;Layer height: 0.2
;MINX:89.2
;MINY:87.45
;MINZ:0.2
;MAXX:134.8
;MAXY:136.55
;MAXZ:30
;Generated with Cura_SteamEngine 4.2.1
M140 S60
M105
M190 S60
M104 S200
M105
M109 S200
M82 ;absolute extrusion mode
G21 ;metric values
G90 ;absolute positioning
M82 ;set extruder to absolute mode
M107 ;start with the fan off
G28 X0 Y0 ;move X/Y to min endstops
G28 Z0 ;move Z to min endstops
G1 Z15.0 F100 ;move the platform down 15mm
G92 E0 ;zero the extruded length
G1 F200 E3 ;extrude 3mm of feed stock
G92 E0 ;zero the extruded length again
G1 F100
M117 Printing...
G5
M141 S28
G92 E0
G92 E0
G1 F2400 E-6
;LAYER_COUNT:150
;LAYER:0
M106 S255
M204 S3000
M205 X10 Y10
;MESH:Borotva.Tarto.stl
G0 F3000 X108.635 Y123.936 Z0.2
M204 S1800
M205 X8 Y8
;TYPE:WALL-INNER
G1 F2400 E0
G1 F1500 X110.56 Y124.45 E0.09278
G1 X112.562 Y124.547 E0.18611
G1 X114.54 Y124.211 E0.27953
G1 X116.384 Y123.467 E0.37212
G1 X117.985 Y122.379 E0.46225
G1 X119.385 Y120.924 E0.55628
G1 X120.44 Y119.189 E0.65083
G1 X121.087 Y117.303 E0.74367
G1 X121.296 Y115.46 E0.83004
G1 X121.271 Y114.436 E0.87774
G1 X121.141 Y113.499 E0.92178
G1 X120.916 Y112.568 E0.96638
G1 X120.9 Y112.527 E0.96843
G1 X120.9 Y108.085 E1.17527
G1 X125.615 Y90.044 E2.04355
G1 X131.893 Y90.028 E2.33588
G1 X133.598 Y90.033 E2.41527
G1 X133.6 Y135.07 E4.51239
G1 X133.6 Y135.35 E4.52542
G1 X133.32 Y135.35 E4.53386
G1 X90.4 Y135.35 E6.5324
G1 X90.4 Y90.033 E8.64255
G1 X91.219 Y90.031 E8.68068
G1 X98.386 Y90.048 E9.01441
G1 X98.421 Y90.181 E9.02081
G1 X103.098 Y108.079 E9.88221
G1 X103.1 Y108.423 E9.89822
G1 X103.1 Y112.534 E10.08965
G1 X103.07 Y112.612 E10.09354
G1 X102.734 Y114.372 E10.17697
G1 X102.759 Y116.395 E10.27118
G1 X103.22 Y118.357 E10.36503
G1 X104.099 Y120.182 E10.45935
G1 X105.283 Y121.691 E10.54866
G1 X106.813 Y122.98 E10.64182
G1 X108.635 Y123.936 E10.73763
M204 S3000
M205 X10 Y10
G0 F3000 X108.84 Y123.411
M204 S1800
M205 X8 Y8
G1 F1500 X110.647 Y123.894 E10.82472
G1 X112.528 Y123.985 E10.91241
G1 X114.387 Y123.669 E11.00022
G1 X116.119 Y122.97 E11.08719
G1 X117.622 Y121.949 E11.17179
G1 X118.939 Y120.58 E11.26025
G1 X119.93 Y118.95 E11.34908
G1 X120.537 Y117.179 E11.43625
G1 X120.735 Y115.435 E11.51798
G1 X120.712 Y114.481 E11.56241
G1 X120.59 Y113.604 E11.60365
G1 X120.38 Y112.736 E11.64523
G1 X120.34 Y112.633 E11.65037
G1 X120.34 Y108.012 E11.86555
G1 X125.182 Y89.485 E12.75722
G1 X131.893 Y89.468 E13.06971
G1 X134.145 Y89.474 E13.17457
G1 X134.16 Y90.117 E13.20452
G1 X134.16 Y135.91 E15.33684
G1 X89.84 Y135.91 E17.40056
G1 X89.84 Y89.475 E19.56277
G1 X91.218 Y89.471 E19.62694
G1 X98.819 Y89.489 E19.98087
G1 X98.963 Y90.039 E20.00734
G1 X103.657 Y108.004 E20.87195
G1 X103.66 Y108.423 E20.89146
G1 X103.66 Y112.638 E21.08773
G1 X103.611 Y112.766 E21.09411
G1 X103.295 Y114.422 E21.17262
G1 X103.318 Y116.327 E21.26133
G1 X103.751 Y118.169 E21.34944
G1 X104.577 Y119.884 E21.43807
G1 X105.688 Y121.3 E21.52188
G1 X107.127 Y122.512 E21.60949
G1 X108.84 Y123.411 E21.69957
M204 S3000
M205 X10 Y10
G0 F3000 X109.045 Y122.886
M204 S1800
M205 X8 Y8
;TYPE:WALL-OUTER
G1 F1500 X110.734 Y123.338 E21.78098
G1 X112.494 Y123.423 E21.86303
G1 X114.233 Y123.127 E21.94517
G1 X115.854 Y122.473 E22.02656
G1 X117.259 Y121.519 E22.10564
G1 X118.493 Y120.236 E22.18853
G1 X119.42 Y118.711 E22.27163
G1 X119.987 Y117.055 E22.35314
G1 X120.174 Y115.41 E22.43023
G1 X120.153 Y114.526 E22.4714
G1 X120.039 Y113.709 E22.50982
G1 X119.844 Y112.904 E22.54838
G1 X119.78 Y112.739 E22.55662
G1 X119.78 Y107.939 E22.78013
G1 X124.749 Y88.926 E23.69519
G1 X131.893 Y88.908 E24.02785
G1 X134.682 Y88.915 E24.15772
G1 X134.693 Y88.958 E24.15978
G1 X134.72 Y90.117 E24.21377
G1 X134.72 Y136.47 E26.37216
G1 X89.28 Y136.47 E28.48803
G1 X89.28 Y89.264 E30.68614
G1 X89.307 Y88.956 E30.70054
G1 X89.317 Y88.916 E30.70246
G1 X91.218 Y88.911 E30.79098
G1 X99.205 Y88.93 E31.16289
G1 X99.341 Y89.272 E31.18002
G1 X99.505 Y89.897 E31.21011
G1 X104.217 Y107.929 E32.07795
G1 X104.22 Y108.423 E32.10095
G1 X104.22 Y112.74 E32.30197
G1 X104.152 Y112.919 E32.31089
G1 X103.856 Y114.472 E32.3845
G1 X103.877 Y116.259 E32.46772
G1 X104.282 Y117.981 E32.55009
G1 X105.055 Y119.586 E32.63304
G1 X106.093 Y120.909 E32.71135
G1 X107.441 Y122.044 E32.7934
G1 X109.045 Y122.886 E32.87775
M204 S3000
M205 X10 Y10
G0 F3000 X109.238 Y122.937
G0 X109.068 Y123.574
G0 X108.434 Y124.451
M204 S1800
M205 X8 Y8
;TYPE:SKIN
G1 F1500 X110.475 Y124.996 E32.97612
G1 X112.595 Y125.099 E33.07495
G1 X114.691 Y124.743 E33.17395
G1 X116.645 Y123.955 E33.27206
G1 X118.342 Y122.801 E33.36762
G1 X119.823 Y121.262 E33.46707
G1 X120.941 Y119.424 E33.56725
G1 X121.627 Y117.425 E33.66566
G1 X121.846 Y115.484 E33.75661
G1 X121.821 Y114.391 E33.80752
G1 X121.682 Y113.397 E33.85425
G1 X121.45 Y112.435 E33.90033
G1 X121.45 Y108.156 E34.09958
G1 X126.04 Y90.592 E34.9449
G1 X131.893 Y90.578 E35.21744
G1 X133.048 Y90.581 E35.27122
G1 X133.05 Y134.8 E37.33024
G1 X90.95 Y134.8 E39.2906
G1 X90.95 Y90.582 E41.34957
G1 X91.219 Y90.581 E41.3621
G1 X97.962 Y90.597 E41.67608
G1 X102.548 Y108.15 E42.52086
G1 X102.55 Y108.423 E42.53357
G1 X102.55 Y112.433 E42.72029
G1 X102.539 Y112.461 E42.72169
G1 X102.184 Y114.323 E42.80996
G1 X102.209 Y116.462 E42.90957
G1 X102.698 Y118.542 E43.00906
G1 X103.629 Y120.475 E43.10896
G1 X104.886 Y122.076 E43.20374
G1 X106.505 Y123.439 E43.30229
G1 X108.434 Y124.451 E43.40372
M204 S3000
M205 X10 Y10
G0 F3000 X91.773 Y134.539
M204 S1800
M205 X8 Y8
G1 F1500 X91.209 Y133.975 E43.44086
M204 S3000
M205 X10 Y10
G0 F3000 X91.209 Y133.183
M204 S1800
M205 X8 Y8
G1 F1500 X92.565 Y134.539 E43.53016
M204 S3000
M205 X10 Y10
G0 F3000 X93.357 Y134.539
M204 S1800
M205 X8 Y8
G1 F1500 X91.209 Y132.391 E43.67161
M204 S3000
M205 X10 Y10
G0 F3000 X91.209 Y131.599
M204 S1800
M205 X8 Y8
G1 F1500 X94.149 Y134.539 E43.86521
M204 S3000
M205 X10 Y10
G0 F3000 X94.941 Y134.539
M204 S1800
M205 X8 Y8
G1 F1500 X91.209 Y130.807 E44.11097
M204 S3000
M205 X10 Y10
G0 F3000 X91.209 Y130.015
M204 S1800
M205 X8 Y8
G1 F1500 X95.733 Y134.539 E44.40888
M204 S3000
M205 X10 Y10
G0 F3000 X96.525 Y134.539
M204 S1800
M205 X8 Y8
G1 F1500 X91.209 Y129.223 E44.75895
M204 S3000
M205 X10 Y10
G0 F3000 X91.209 Y128.431
M204 S1800
M205 X8 Y8
G1 F1500 X97.316 Y134.539 E45.16114
M204 S3000
M205 X10 Y10
G0 F3000 X98.108 Y134.539
M204 S1800
M205 X8 Y8
G1 F1500 X91.209 Y127.639 E45.61549
M204 S3000
M205 X10 Y10
G0 F3000 X91.209 Y126.847
M204 S1800
M205 X8 Y8
G1 F1500 X98.9 Y134.539 E46.12198
M204 S3000
M205 X10 Y10
G0 F3000 X99.692 Y134.539
M204 S1800
M205 X8 Y8
G1 F1500 X91.209 Y126.055 E46.68064
M204 S3000
M205 X10 Y10
G0 F3000 X91.209 Y125.263
M204 S1800
M205 X8 Y8
G1 F1500 X100.484 Y134.539 E47.29144
M204 S3000
M205 X10 Y10
G0 F3000 X101.276 Y134.539
M204 S1800
M205 X8 Y8
G1 F1500 X91.209 Y124.472 E47.95437
M204 S3000
M205 X10 Y10
G0 F3000 X91.209 Y123.68
M204 S1800
M205 X8 Y8
G1 F1500 X102.068 Y134.539 E48.66946
M204 S3000
M205 X10 Y10
G0 F3000 X102.86 Y134.539
M204 S1800
M205 X8 Y8
G1 F1500 X91.209 Y122.888 E49.43669
M204 S3000
M205 X10 Y10
G0 F3000 X91.209 Y122.096
M204 S1800
M205 X8 Y8
G1 F1500 X103.652 Y134.539 E50.25609
M204 S3000
M205 X10 Y10
G0 F3000 X104.444 Y134.539
M204 S1800
M205 X8 Y8
G1 F1500 X91.209 Y121.304 E51.12764
M204 S3000
M205 X10 Y10
G0 F3000 X91.209 Y120.512
M204 S1800
M205 X8 Y8
G1 F1500 X105.236 Y134.539 E52.05134
M204 S3000
M205 X10 Y10
G0 F3000 X106.028 Y134.539
M204 S1800
M205 X8 Y8
G1 F1500 X91.209 Y119.72 E53.02719
M204 S3000
M205 X10 Y10
G0 F3000 X91.209 Y118.928
M204 S1800
M205 X8 Y8
G1 F1500 X106.82 Y134.539 E54.0552
M204 S3000
M205 X10 Y10
G0 F3000 X107.612 Y134.539
M204 S1800
M205 X8 Y8
G1 F1500 X91.209 Y118.136 E55.13537
M204 S3000
M205 X10 Y10
G0 F3000 X91.209 Y117.344
M204 S1800
M205 X8 Y8
G1 F1500 X108.404 Y134.539 E56.26769
M204 S3000
M205 X10 Y10
G0 F3000 X109.196 Y134.539
M204 S1800
M205 X8 Y8
G1 F1500 X91.209 Y116.552 E57.45216
M204 S3000
M205 X10 Y10
G0 F3000 X91.209 Y115.76
M204 S1800
M205 X8 Y8
G1 F1500 X109.988 Y134.539 E58.68879
M204 S3000
M205 X10 Y10
G0 F3000 X110.78 Y134.539
M204 S1800
M205 X8 Y8
G1 F1500 X91.209 Y114.968 E59.97758
M204 S3000
M205 X10 Y10
G0 F3000 X91.209 Y114.176
M204 S1800
M205 X8 Y8
G1 F1500 X111.572 Y134.539 E61.31852
M204 S3000
M205 X10 Y10
G0 F3000 X112.364 Y134.539
M204 S1800
M205 X8 Y8
G1 F1500 X91.209 Y113.384 E62.71161
M204 S3000
M205 X10 Y10
G0 F3000 X91.208 Y112.591
M204 S1800
M205 X8 Y8
G1 F1500 X113.156 Y134.539 E64.15692
M204 S3000
M205 X10 Y10
G0 F3000 X113.948 Y134.539
M204 S1800
M205 X8 Y8
G1 F1500 X91.208 Y111.799 E65.65439
M204 S3000
M205 X10 Y10
G0 F3000 X91.208 Y111.007
M204 S1800
M205 X8 Y8
G1 F1500 X114.74 Y134.539 E67.20401
M204 S3000
M205 X10 Y10
G0 F3000 X115.532 Y134.539
M204 S1800
M205 X8 Y8
G1 F1500 X91.208 Y110.216 E68.80576
M204 S3000
M205 X10 Y10
G0 F3000 X91.208 Y109.424
M204 S1800
M205 X8 Y8
G1 F1500 X116.324 Y134.539 E70.45966
M204 S3000
M205 X10 Y10
G0 F3000 X117.115 Y134.539
M204 S1800
M205 X8 Y8
G1 F1500 X105.559 Y122.982 E71.22067
G1 X105.489 Y122.912
M204 S3000
M205 X10 Y10
G0 F3000 X104.201 Y121.624
M204 S1800
M205 X8 Y8
G1 F1500 X91.208 Y108.632 E72.07625
M204 S3000
M205 X10 Y10
G0 F3000 X91.208 Y107.84
M204 S1800
M205 X8 Y8
G1 F1500 X102.873 Y119.504 E72.84438
G1 X102.943 Y119.574
M204 S3000
M205 X10 Y10
G0 F3000 X102.347 Y118.186
M204 S1800
M205 X8 Y8
G1 F1500 X91.208 Y107.048 E73.57787
M204 S3000
M205 X10 Y10
G0 F3000 X91.208 Y106.256
M204 S1800
M205 X8 Y8
G1 F1500 X102.103 Y117.15 E74.29529
M204 S3000
M205 X10 Y10
G0 F3000 X101.945 Y116.2
M204 S1800
M205 X8 Y8
G1 F1500 X91.208 Y105.464 E75.0023
M204 S3000
M205 X10 Y10
G0 F3000 X91.208 Y104.672
M204 S1800
M205 X8 Y8
G1 F1500 X101.936 Y115.399 E75.70873
M204 S3000
M205 X10 Y10
G0 F3000 X101.927 Y114.598
M204 S1800
M205 X8 Y8
G1 F1500 X91.208 Y103.88 E76.41456
M204 S3000
M205 X10 Y10
G0 F3000 X91.208 Y103.088
M204 S1800
M205 X8 Y8
G1 F1500 X102.003 Y113.883 E77.12543
M204 S3000
M205 X10 Y10
G0 F3000 X102.13 Y113.217
M204 S1800
M205 X8 Y8
G1 F1500 X91.208 Y102.296 E77.84463
M204 S3000
M205 X10 Y10
G0 F3000 X91.208 Y101.504
M204 S1800
M205 X8 Y8
G1 F1500 X102.257 Y112.553 E78.57222
M204 S3000
M205 X10 Y10
G0 F3000 X102.29 Y111.793
M204 S1800
M205 X8 Y8
G1 F1500 X91.208 Y100.712 E79.30196
M204 S3000
M205 X10 Y10
G0 F3000 X91.208 Y99.92
M204 S1800
M205 X8 Y8
G1 F1500 X102.29 Y111.001 E80.03169
M204 S3000
M205 X10 Y10
G0 F3000 X102.29 Y110.209
M204 S1800
M205 X8 Y8
G1 F1500 X91.208 Y99.128 E80.76143
M204 S3000
M205 X10 Y10
G0 F3000 X91.208 Y98.336
M204 S1800
M205 X8 Y8
G1 F1500 X102.29 Y109.417 E81.49117
M204 S3000
M205 X10 Y10
G0 F3000 X102.29 Y108.625
M204 S1800
M205 X8 Y8
G1 F1500 X91.208 Y97.544 E82.2209
M204 S3000
M205 X10 Y10
G0 F3000 X91.208 Y96.752
M204 S1800
M205 X8 Y8
G1 F1500 X102.163 Y107.707 E82.94231
M204 S3000
M205 X10 Y10
G0 F3000 X101.883 Y106.635
M204 S1800
M205 X8 Y8
G1 F1500 X91.208 Y95.96 E83.64527
M204 S3000
M205 X10 Y10
G0 F3000 X91.208 Y95.168
M204 S1800
M205 X8 Y8
G1 F1500 X101.603 Y105.563 E84.3298
M204 S3000
M205 X10 Y10
G0 F3000 X101.322 Y104.49
M204 S1800
M205 X8 Y8
G1 F1500 X91.208 Y94.376 E84.99583
M204 S3000
M205 X10 Y10
G0 F3000 X91.208 Y93.584
M204 S1800
M205 X8 Y8
G1 F1500 X101.042 Y103.418 E85.64341
M204 S3000
M205 X10 Y10
G0 F3000 X100.762 Y102.346
M204 S1800
M205 X8 Y8
G1 F1500 X91.208 Y92.792 E86.27256
M204 S3000
M205 X10 Y10
G0 F3000 X91.208 Y92
M204 S1800
M205 X8 Y8
G1 F1500 X100.481 Y101.273 E86.8832
M204 S3000
M205 X10 Y10
G0 F3000 X100.201 Y100.201
M204 S1800
M205 X8 Y8
G1 F1500 X91.208 Y91.208 E87.47541
M204 S3000
M205 X10 Y10
G0 F3000 X91.634 Y90.842
M204 S1800
M205 X8 Y8
G1 F1500 X99.921 Y99.13 E88.02115
M204 S3000
M205 X10 Y10
G0 F3000 X99.641 Y98.057
M204 S1800
M205 X8 Y8
G1 F1500 X92.428 Y90.844 E88.49614
M204 S3000
M205 X10 Y10
G0 F3000 X93.222 Y90.846
M204 S1800
M205 X8 Y8
G1 F1500 X99.361 Y96.985 E88.90041
M204 S3000
M205 X10 Y10
G0 F3000 X99.081 Y95.913
M204 S1800
M205 X8 Y8
G1 F1500 X94.015 Y90.847 E89.23401
M204 S3000
M205 X10 Y10
G0 F3000 X94.809 Y90.849
M204 S1800
M205 X8 Y8
G1 F1500 X98.8 Y94.84 E89.49682
M204 S3000
M205 X10 Y10
G0 F3000 X98.52 Y93.768
M204 S1800
M205 X8 Y8
G1 F1500 X95.603 Y90.851 E89.68891
M204 S3000
M205 X10 Y10
G0 F3000 X96.397 Y90.853
M204 S1800
M205 X8 Y8
G1 F1500 X98.24 Y92.696 E89.81028
M204 S3000
M205 X10 Y10
G0 F3000 X97.959 Y91.624
M204 S1800
M205 X8 Y8
G1 F1500 X97.191 Y90.855 E89.86089
M204 S3000
M205 X10 Y10
G0 F3000 X103.714 Y118.182
G0 X104.544 Y119.905
G0 X105.66 Y121.327
G0 X107.105 Y122.545
G0 X108.826 Y123.448
G0 X110.641 Y123.933
G0 X112.53 Y124.024
G0 X114.397 Y123.707
G0 X116.137 Y123.005
G0 X117.647 Y121.979
G0 X118.97 Y120.604
G0 X119.966 Y118.966
G0 X120.515 Y117.365
G0 X124.322 Y98.188
M204 S1800
M205 X8 Y8
G1 F1500 X132.788 Y106.653 E90.41835
M204 S3000
M205 X10 Y10
G0 F3000 X132.788 Y105.861
M204 S1800
M205 X8 Y8
G1 F1500 X124.486 Y97.56 E90.96502
M204 S3000
M205 X10 Y10
G0 F3000 X124.65 Y96.932
M204 S1800
M205 X8 Y8
G1 F1500 X132.788 Y105.069 E91.50089
M204 S3000
M205 X10 Y10
G0 F3000 X132.788 Y104.277
M204 S1800
M205 X8 Y8
G1 F1500 X124.814 Y96.304 E92.02596
M204 S3000
M205 X10 Y10
G0 F3000 X124.979 Y95.676
M204 S1800
M205 X8 Y8
G1 F1500 X132.788 Y103.485 E92.54019
M204 S3000
M205 X10 Y10
G0 F3000 X132.788 Y102.693
M204 S1800
M205 X8 Y8
G1 F1500 X125.143 Y95.048 E93.04363
M204 S3000
M205 X10 Y10
G0 F3000 X125.307 Y94.421
M204 S1800
M205 X8 Y8
G1 F1500 X132.788 Y101.901 E93.53623
M204 S3000
M205 X10 Y10
G0 F3000 X132.787 Y101.109
M204 S1800
M205 X8 Y8
G1 F1500 X125.471 Y93.793 E94.018
M204 S3000
M205 X10 Y10
G0 F3000 X125.635 Y93.165
M204 S1800
M205 X8 Y8
G1 F1500 X132.787 Y100.317 E94.48898
M204 S3000
M205 X10 Y10
G0 F3000 X132.787 Y99.525
M204 S1800
M205 X8 Y8
G1 F1500 X125.799 Y92.537 E94.94915
M204 S3000
M205 X10 Y10
G0 F3000 X125.964 Y91.909
M204 S1800
M205 X8 Y8
G1 F1500 X132.787 Y98.733 E95.39849
M204 S3000
M205 X10 Y10
G0 F3000 X132.787 Y97.941
M204 S1800
M205 X8 Y8
G1 F1500 X126.128 Y91.281 E95.83703
M204 S3000
M205 X10 Y10
G0 F3000 X126.488 Y90.85
M204 S1800
M205 X8 Y8
G1 F1500 X132.787 Y97.149 E96.25183
M204 S3000
M205 X10 Y10
G0 F3000 X132.787 Y96.357
M204 S1800
M205 X8 Y8
G1 F1500 X127.278 Y90.848 E96.6146
M204 S3000
M205 X10 Y10
G0 F3000 X128.069 Y90.846
M204 S1800
M205 X8 Y8
G1 F1500 X132.787 Y95.565 E96.92532
M204 S3000
M205 X10 Y10
G0 F3000 X132.787 Y94.773
M204 S1800
M205 X8 Y8
G1 F1500 X128.858 Y90.844 E97.18406
M204 S3000
M205 X10 Y10
G0 F3000 X129.649 Y90.843
M204 S1800
M205 X8 Y8
G1 F1500 X132.787 Y93.981 E97.3907
M204 S3000
M205 X10 Y10
G0 F3000 X132.787 Y93.189
M204 S1800
M205 X8 Y8
G1 F1500 X130.439 Y90.841 E97.54532
M204 S3000
M205 X10 Y10
G0 F3000 X131.229 Y90.839
M204 S1800
M205 X8 Y8
G1 F1500 X132.787 Y92.397 E97.64792
M204 S3000
M205 X10 Y10
G0 F3000 X132.787 Y91.605
M204 S1800
M205 X8 Y8
G1 F1500 X132.02 Y90.838 E97.69842
M204 S3000
M205 X10 Y10
G0 F3000 X124.158 Y98.816
M204 S1800
M205 X8 Y8
G1 F1500 X132.788 Y107.445 E98.26669
M204 S3000
M205 X10 Y10
G0 F3000 X132.788 Y108.237
M204 S1800
M205 X8 Y8
G1 F1500 X123.994 Y99.443 E98.84579
M204 S3000
M205 X10 Y10
G0 F3000 X123.83 Y100.071
M204 S1800
M205 X8 Y8
G1 F1500 X132.788 Y109.029 E99.43569
M204 S3000
M205 X10 Y10
G0 F3000 X132.788 Y109.821
M204 S1800
M205 X8 Y8
G1 F1500 X123.666 Y100.699 E100.03639
M204 S3000
M205 X10 Y10
G0 F3000 X123.502 Y101.327
M204 S1800
M205 X8 Y8
