;FLAVOR:Marlin
;TIME:2366
;Filament used: 0.894198m
;Layer height: 0.1
;MINX:85.7
;MINY:104.65
;MINZ:0.1
;MAXX:138.3
;MAXY:119.35
;MAXZ:7
;Generated with Cura_SteamEngine 4.2.1
M140 S60
M105
M190 S60
M104 S200
M105
M109 S200
M82 ;absolute extrusion mode
G21 ;metric values
G90 ;absolute positioning
M82 ;set extruder to absolute mode
M107 ;start with the fan off
G28 X0 Y0 ;move X/Y to min endstops
G28 Z0 ;move Z to min endstops
G1 Z15.0 F50 ;move the platform down 15mm
G92 E0 ;zero the extruded length
G1 F200 E3 ;extrude 3mm of feed stock
G92 E0 ;zero the extruded length again
G1 F50
M117 Printing...
G5
M141 S28
G92 E0
G92 E0
G1 F2400 E-6
;LAYER_COUNT:70
;LAYER:0
M106 S255
M204 S3000
M205 X10 Y10
;MESH:lamp.base.ps.cup.stl
G0 F1500 X135.9 Y117.95 Z0.1
M204 S1800
M205 X8 Y8
;TYPE:WALL-INNER
G1 F2400 E0
G1 F1500 X116.17 Y117.95 E0.45936
G1 X114.6 Y117.99 E0.49592
G1 X114.6 Y118.15 E0.49965
G1 X113.4 Y118.15 E0.52758
G1 X113.4 Y117.95 E0.53224
G1 X89.805 Y117.95 E1.08158
G1 X88.1 Y117.975 E1.12128
G1 X88.1 Y118.15 E1.12536
G1 X86.9 Y118.15 E1.15329
G1 X86.9 Y105.85 E1.43966
G1 X137.1 Y105.85 E2.60843
G1 X137.1 Y118.15 E2.8948
G1 X135.9 Y118.15 E2.92273
G1 X135.9 Y117.95 E2.92739
M204 S3000
M205 X10 Y10
G0 X135.34 Y118.51
M204 S1800
M205 X8 Y8
G1 X116.177 Y118.51 E3.37355
G1 X115.16 Y118.536 E3.39723
G1 X115.16 Y118.71 E3.40128
G1 X112.84 Y118.71 E3.4553
G1 X112.84 Y118.51 E3.45995
G1 X89.809 Y118.51 E3.99616
G1 X88.66 Y118.527 E4.02292
G1 X88.66 Y118.71 E4.02718
G1 X86.34 Y118.71 E4.08119
G1 X86.34 Y105.29 E4.39364
G1 X137.66 Y105.29 E5.58847
G1 X137.66 Y118.71 E5.90092
G1 X135.34 Y118.71 E5.95493
G1 X135.34 Y118.51 E5.95959
M204 S3000
M205 X10 Y10
G0 X134.78 Y119.07
M204 S1800
M205 X8 Y8
;TYPE:WALL-OUTER
G1 X116.184 Y119.07 E6.39254
G1 X115.72 Y119.082 E6.40335
G1 X115.72 Y119.27 E6.40773
G1 X112.28 Y119.27 E6.48782
G1 X112.28 Y119.07 E6.49248
G1 X89.813 Y119.07 E7.01555
G1 X89.22 Y119.079 E7.02936
G1 X89.22 Y119.27 E7.03381
G1 X85.78 Y119.27 E7.1139
G1 X85.78 Y104.73 E7.45242
G1 X138.22 Y104.73 E8.67333
G1 X138.22 Y119.27 E9.01186
G1 X134.78 Y119.27 E9.09195
G1 X134.78 Y119.07 E9.0966
M204 S3000
M205 X10 Y10
G0 X134.58 Y119.07
G0 X134.58 Y118.41
G0 X136.45 Y117.6
M204 S1800
M205 X8 Y8
;TYPE:SKIN
G1 X136.45 Y117.4 E9.10126
G1 X116.163 Y117.4 E9.57358
G1 X114.05 Y117.454 E9.62279
G1 X114.05 Y117.6 E9.62619
G1 X113.95 Y117.6 E9.62852
G1 X113.95 Y117.4 E9.63318
G1 X89.801 Y117.4 E10.19542
G1 X87.55 Y117.433 E10.24783
G1 X87.55 Y117.6 E10.25172
G1 X87.45 Y117.6 E10.25405
G1 X87.45 Y106.4 E10.51481
G1 X136.55 Y106.4 E11.65796
G1 X136.55 Y117.6 E11.91872
G1 X136.45 Y117.6 E11.92104
M204 S3000
M205 X10 Y10
G0 X136.289 Y106.987
M204 S1800
M205 X8 Y8
G1 X135.962 Y106.659 E11.93183
M204 S3000
M205 X10 Y10
G0 X135.17 Y106.659
M204 S1800
M205 X8 Y8
G1 X136.289 Y107.779 E11.96869
M204 S3000
M205 X10 Y10
G0 X136.289 Y108.571
M204 S1800
M205 X8 Y8
G1 X134.378 Y106.659 E12.03163
M204 S3000
M205 X10 Y10
G0 X133.586 Y106.659
M204 S1800
M205 X8 Y8
G1 X136.289 Y109.363 E12.12064
M204 S3000
M205 X10 Y10
G0 X136.289 Y110.155
M204 S1800
M205 X8 Y8
G1 X132.794 Y106.659 E12.23573
M204 S3000
M205 X10 Y10
G0 X132.002 Y106.659
M204 S1800
M205 X8 Y8
G1 X136.289 Y110.947 E12.3769
M204 S3000
M205 X10 Y10
G0 X136.289 Y111.739
M204 S1800
M205 X8 Y8
G1 X131.21 Y106.659 E12.54415
M204 S3000
M205 X10 Y10
G0 X130.418 Y106.659
M204 S1800
M205 X8 Y8
G1 X136.289 Y112.531 E12.73747
M204 S3000
M205 X10 Y10
G0 X136.289 Y113.323
M204 S1800
M205 X8 Y8
G1 X129.626 Y106.659 E12.95688
M204 S3000
M205 X10 Y10
G0 X128.834 Y106.659
M204 S1800
M205 X8 Y8
G1 X136.289 Y114.115 E13.20235
M204 S3000
M205 X10 Y10
G0 X136.289 Y114.906
M204 S1800
M205 X8 Y8
G1 X128.042 Y106.659 E13.47389
M204 S3000
M205 X10 Y10
G0 X127.25 Y106.659
M204 S1800
M205 X8 Y8
G1 X136.289 Y115.698 E13.77151
M204 S3000
M205 X10 Y10
G0 X136.289 Y116.49
M204 S1800
M205 X8 Y8
G1 X126.458 Y106.659 E14.0952
M204 S3000
M205 X10 Y10
G0 X125.667 Y106.659
M204 S1800
M205 X8 Y8
G1 X136.146 Y117.139 E14.44025
M204 S3000
M205 X10 Y10
G0 X135.354 Y117.139
M204 S1800
M205 X8 Y8
G1 X124.875 Y106.659 E14.7853
M204 S3000
M205 X10 Y10
G0 X124.083 Y106.659
M204 S1800
M205 X8 Y8
G1 X134.562 Y117.139 E15.13034
M204 S3000
M205 X10 Y10
G0 X133.77 Y117.139
M204 S1800
M205 X8 Y8
G1 X123.291 Y106.659 E15.47539
M204 S3000
M205 X10 Y10
G0 X122.499 Y106.659
M204 S1800
M205 X8 Y8
G1 X132.978 Y117.139 E15.82044
M204 S3000
M205 X10 Y10
G0 X132.186 Y117.139
M204 S1800
M205 X8 Y8
G1 X121.707 Y106.659 E16.16548
M204 S3000
M205 X10 Y10
G0 X120.915 Y106.659
M204 S1800
M205 X8 Y8
G1 X131.394 Y117.139 E16.51053
M204 S3000
M205 X10 Y10
G0 X130.602 Y117.139
M204 S1800
M205 X8 Y8
G1 X120.123 Y106.659 E16.85558
M204 S3000
M205 X10 Y10
G0 X119.331 Y106.659
M204 S1800
M205 X8 Y8
G1 X129.81 Y117.139 E17.20062
M204 S3000
M205 X10 Y10
G0 X129.018 Y117.139
M204 S1800
M205 X8 Y8
G1 X118.539 Y106.659 E17.54567
M204 S3000
M205 X10 Y10
G0 X117.747 Y106.659
M204 S1800
M205 X8 Y8
G1 X128.226 Y117.139 E17.89072
M204 S3000
M205 X10 Y10
G0 X127.434 Y117.139
M204 S1800
M205 X8 Y8
G1 X116.955 Y106.659 E18.23576
M204 S3000
M205 X10 Y10
G0 X116.163 Y106.659
M204 S1800
M205 X8 Y8
G1 X126.642 Y117.139 E18.58081
M204 S3000
M205 X10 Y10
G0 X125.85 Y117.139
M204 S1800
M205 X8 Y8
G1 X115.371 Y106.659 E18.92586
M204 S3000
M205 X10 Y10
G0 X114.579 Y106.659
M204 S1800
M205 X8 Y8
G1 X125.058 Y117.139 E19.2709
M204 S3000
M205 X10 Y10
G0 X124.266 Y117.139
M204 S1800
M205 X8 Y8
G1 X113.787 Y106.659 E19.61595
M204 S3000
M205 X10 Y10
G0 X112.995 Y106.659
M204 S1800
M205 X8 Y8
G1 X123.474 Y117.139 E19.961
M204 S3000
M205 X10 Y10
G0 X122.683 Y117.139
M204 S1800
M205 X8 Y8
G1 X112.203 Y106.659 E20.30606
M204 S3000
M205 X10 Y10
G0 X111.411 Y106.659
M204 S1800
M205 X8 Y8
G1 X121.891 Y117.139 E20.65112
M204 S3000
M205 X10 Y10
G0 X121.099 Y117.139
M204 S1800
M205 X8 Y8
G1 X110.619 Y106.659 E20.99618
M204 S3000
M205 X10 Y10
G0 X109.827 Y106.659
M204 S1800
M205 X8 Y8
G1 X120.307 Y117.139 E21.34125
M204 S3000
M205 X10 Y10
G0 X119.515 Y117.139
M204 S1800
M205 X8 Y8
G1 X109.035 Y106.659 E21.68631
M204 S3000
M205 X10 Y10
G0 X108.243 Y106.659
M204 S1800
M205 X8 Y8
G1 X118.723 Y117.139 E22.03137
M204 S3000
M205 X10 Y10
G0 X117.931 Y117.139
M204 S1800
M205 X8 Y8
G1 X107.451 Y106.659 E22.37644
M204 S3000
M205 X10 Y10
G0 X106.659 Y106.659
M204 S1800
M205 X8 Y8
G1 X117.139 Y117.139 E22.7215
M204 S3000
M205 X10 Y10
G0 X116.347 Y117.139
M204 S1800
M205 X8 Y8
G1 X105.868 Y106.659 E23.06655
M204 S3000
M205 X10 Y10
G0 X105.076 Y106.659
M204 S1800
M205 X8 Y8
G1 X115.569 Y117.153 E23.41205
M204 S3000
M205 X10 Y10
G0 X114.797 Y117.173
M204 S1800
M205 X8 Y8
G1 X104.284 Y106.659 E23.75822
M204 S3000
M205 X10 Y10
G0 X103.492 Y106.659
M204 S1800
M205 X8 Y8
G1 X113.971 Y117.139 E24.10327
M204 S3000
M205 X10 Y10
G0 X113.179 Y117.139
M204 S1800
M205 X8 Y8
G1 X102.7 Y106.659 E24.44831
M204 S3000
M205 X10 Y10
G0 X101.908 Y106.659
M204 S1800
M205 X8 Y8
G1 X112.387 Y117.139 E24.79336
M204 S3000
M205 X10 Y10
G0 X111.595 Y117.139
M204 S1800
M205 X8 Y8
G1 X101.116 Y106.659 E25.1384
M204 S3000
M205 X10 Y10
G0 X100.324 Y106.659
M204 S1800
M205 X8 Y8
G1 X110.803 Y117.139 E25.48345
M204 S3000
M205 X10 Y10
G0 X110.011 Y117.139
M204 S1800
M205 X8 Y8
G1 X99.532 Y106.659 E25.8285
M204 S3000
M205 X10 Y10
G0 X98.74 Y106.659
M204 S1800
M205 X8 Y8
G1 X109.219 Y117.139 E26.17354
M204 S3000
M205 X10 Y10
G0 X108.427 Y117.139
M204 S1800
M205 X8 Y8
G1 X97.948 Y106.659 E26.51859
M204 S3000
M205 X10 Y10
G0 X97.156 Y106.659
M204 S1800
M205 X8 Y8
G1 X107.635 Y117.139 E26.86364
M204 S3000
M205 X10 Y10
G0 X106.843 Y117.139
M204 S1800
M205 X8 Y8
G1 X96.364 Y106.659 E27.20868
M204 S3000
M205 X10 Y10
G0 X95.572 Y106.659
M204 S1800
M205 X8 Y8
G1 X106.051 Y117.139 E27.55373
M204 S3000
M205 X10 Y10
G0 X105.259 Y117.139
M204 S1800
M205 X8 Y8
G1 X94.78 Y106.659 E27.89878
M204 S3000
M205 X10 Y10
G0 X93.988 Y106.659
M204 S1800
M205 X8 Y8
G1 X104.467 Y117.139 E28.24382
M204 S3000
M205 X10 Y10
G0 X103.675 Y117.139
M204 S1800
M205 X8 Y8
G1 X93.196 Y106.659 E28.58887
M204 S3000
M205 X10 Y10
G0 X92.404 Y106.659
M204 S1800
M205 X8 Y8
G1 X102.884 Y117.139 E28.93393
M204 S3000
M205 X10 Y10
G0 X102.092 Y117.139
M204 S1800
M205 X8 Y8
G1 X91.612 Y106.659 E29.279
M204 S3000
M205 X10 Y10
G0 X90.82 Y106.659
M204 S1800
M205 X8 Y8
G1 X101.3 Y117.139 E29.62406
M204 S3000
M205 X10 Y10
G0 X100.508 Y117.139
M204 S1800
M205 X8 Y8
G1 X90.028 Y106.659 E29.96912
M204 S3000
M205 X10 Y10
G0 X89.236 Y106.659
M204 S1800
M205 X8 Y8
G1 X99.716 Y117.139 E30.31418
M204 S3000
M205 X10 Y10
G0 X98.924 Y117.139
M204 S1800
M205 X8 Y8
G1 X88.444 Y106.659 E30.65925
M204 S3000
M205 X10 Y10
G0 X87.71 Y106.717
M204 S1800
M205 X8 Y8
G1 X98.132 Y117.139 E31.0024
M204 S3000
M205 X10 Y10
G0 X97.34 Y117.139
M204 S1800
M205 X8 Y8
G1 X87.71 Y107.509 E31.31948
M204 S3000
M205 X10 Y10
G0 X87.71 Y108.301
M204 S1800
M205 X8 Y8
G1 X96.548 Y117.139 E31.61048
M204 S3000
M205 X10 Y10
G0 X95.756 Y117.139
M204 S1800
M205 X8 Y8
G1 X87.71 Y109.093 E31.8754
M204 S3000
M205 X10 Y10
G0 X87.71 Y109.885
M204 S1800
M205 X8 Y8
G1 X94.964 Y117.139 E32.11424
M204 S3000
M205 X10 Y10
G0 X94.172 Y117.139
M204 S1800
M205 X8 Y8
G1 X87.71 Y110.677 E32.32701
M204 S3000
M205 X10 Y10
G0 X87.71 Y111.469
M204 S1800
M205 X8 Y8
G1 X93.38 Y117.139 E32.5137
M204 S3000
M205 X10 Y10
G0 X92.588 Y117.139
M204 S1800
M205 X8 Y8
G1 X87.71 Y112.26 E32.67433
M204 S3000
M205 X10 Y10
G0 X87.71 Y113.052
M204 S1800
M205 X8 Y8
G1 X91.796 Y117.139 E32.80888
M204 S3000
M205 X10 Y10
G0 X91.004 Y117.139
M204 S1800
M205 X8 Y8
G1 X87.71 Y113.844 E32.91735
M204 S3000
M205 X10 Y10
G0 X87.71 Y114.636
M204 S1800
M205 X8 Y8
G1 X90.212 Y117.139 E32.99975
M204 S3000
M205 X10 Y10
G0 X89.425 Y117.144
M204 S1800
M205 X8 Y8
G1 X87.71 Y115.428 E33.05623
M204 S3000
M205 X10 Y10
G0 X87.71 Y116.22
M204 S1800
M205 X8 Y8
G1 X88.645 Y117.155 E33.08702
M204 S3000
M205 X10 Y10
G0 X87.864 Y117.166
M204 S1800
M205 X8 Y8
G1 X87.71 Y117.012 E33.09209
M204 S3000
M205 X10 Y10
;MESH:NONMESH
G0 F600 X87.71 Y117.012 Z0.2
G0 F1500 X135.5 Y118.35
;TIME_ELAPSED:71.451242
;LAYER:1
M140 S60
M204 S1800
M205 X8 Y8
;TYPE:WALL-INNER
;MESH:lamp.base.ps.cup.stl
G1 F2250 X115 Y118.35 E33.43301
G1 X115 Y118.55 E33.43633
G1 X113 Y118.55 E33.46959
G1 X113 Y118.35 E33.47292
G1 X89.475 Y118.35 E33.86414
G1 X88.5 Y118.545 E33.88068
G1 X88.5 Y118.55 E33.88076
G1 X86.5 Y118.55 E33.91402
G1 X86.5 Y105.45 E34.13187
G1 X137.5 Y105.45 E34.98001
G1 X137.5 Y118.55 E35.19786
G1 X135.5 Y118.55 E35.23112
G1 X135.5 Y118.35 E35.23445
M204 S3000
M205 X10 Y10
G0 X135.1 Y118.75
M204 S1800
M205 X8 Y8
G1 X115.4 Y118.75 E35.56206
G1 X115.4 Y118.95 E35.56538
G1 X112.6 Y118.95 E35.61195
G1 X112.6 Y118.75 E35.61527
G1 X89.515 Y118.75 E35.99918
G1 X88.9 Y118.873 E36.00961
G1 X88.9 Y118.95 E36.01089
G1 X86.1 Y118.95 E36.05745
G1 X86.1 Y105.05 E36.28861
G1 X137.9 Y105.05 E37.15005
G1 X137.9 Y118.95 E37.38121
G1 X135.1 Y118.95 E37.42777
G1 X135.1 Y118.75 E37.4311
M204 S3000
M205 X10 Y10
G0 X134.7 Y119.15
M204 S1800
M205 X8 Y8
;TYPE:WALL-OUTER
G1 X115.8 Y119.15 E37.74541
G1 X115.8 Y119.35 E37.74873
G1 X112.2 Y119.35 E37.8086
G1 X112.2 Y119.15 E37.81193
G1 X89.555 Y119.15 E38.18851
G1 X89.3 Y119.201 E38.19284
G1 X89.3 Y119.35 E38.19532
G1 X85.7 Y119.35 E38.25519
G1 X85.7 Y104.65 E38.49965
G1 X138.3 Y104.65 E39.37439
G1 X138.3 Y119.35 E39.61885
G1 X134.7 Y119.35 E39.67872
G1 X134.7 Y119.15 E39.68204
M204 S3000
M205 X10 Y10
G0 X134.5 Y119.15
G0 X134.5 Y118.65
G0 X135.89 Y118.16
M204 S1800
M205 X8 Y8
;TYPE:SKIN
G1 F1350 X135.89 Y117.96 E39.68537
G1 X114.61 Y117.96 E40.03926
G1 X114.61 Y118.16 E40.04258
G1 X113.39 Y118.16 E40.06287
G1 X113.39 Y117.96 E40.0662
G1 X89.436 Y117.96 E40.46456
G1 X88.438 Y118.16 E40.48148
G1 X86.89 Y118.16 E40.50723
G1 X86.89 Y105.84 E40.71211
G1 X137.11 Y105.84 E41.54727
G1 X137.11 Y118.16 E41.75215
G1 X135.89 Y118.16 E41.77244
M204 S3000
M205 X10 Y10
G0 F2250 X136.929 Y117.629
M204 S1800
M205 X8 Y8
G1 F1350 X136.578 Y117.98 E41.7807
M204 S3000
M205 X10 Y10
G0 F2250 X136.069 Y117.923
M204 S1800
M205 X8 Y8
G1 F1350 X136.929 Y117.063 E41.80092
M204 S3000
M205 X10 Y10
G0 F2250 X136.929 Y116.497
M204 S1800
M205 X8 Y8
G1 F1350 X135.646 Y117.78 E41.8311
M204 S3000
M205 X10 Y10
G0 F2250 X135.08 Y117.78
M204 S1800
M205 X8 Y8
G1 F1350 X136.929 Y115.932 E41.87457
M204 S3000
M205 X10 Y10
G0 F2250 X136.929 Y115.366
M204 S1800
M205 X8 Y8
G1 F1350 X134.515 Y117.78 E41.93134
M204 S3000
M205 X10 Y10
G0 F2250 X133.949 Y117.78
M204 S1800
M205 X8 Y8
G1 F1350 X136.929 Y114.8 E42.00143
M204 S3000
M205 X10 Y10
G0 F2250 X136.929 Y114.235
M204 S1800
M205 X8 Y8
G1 F1350 X133.383 Y117.78 E42.08481
M204 S3000
M205 X10 Y10
G0 F2250 X132.817 Y117.78
M204 S1800
M205 X8 Y8
G1 F1350 X136.929 Y113.669 E42.18151
M204 S3000
M205 X10 Y10
G0 F2250 X136.929 Y113.103
M204 S1800
M205 X8 Y8
G1 F1350 X132.252 Y117.78 E42.29151
M204 S3000
M205 X10 Y10
G0 F2250 X131.686 Y117.78
M204 S1800
M205 X8 Y8
G1 F1350 X136.929 Y112.538 E42.4148
M204 S3000
M205 X10 Y10
G0 F2250 X136.929 Y111.972
M204 S1800
M205 X8 Y8
G1 F1350 X131.12 Y117.78 E42.55141
M204 S3000
M205 X10 Y10
G0 F2250 X130.555 Y117.78
M204 S1800
M205 X8 Y8
G1 F1350 X136.929 Y111.406 E42.70132
M204 S3000
M205 X10 Y10
G0 F2250 X136.929 Y110.841
M204 S1800
M205 X8 Y8
G1 F1350 X129.989 Y117.78 E42.86452
M204 S3000
M205 X10 Y10
G0 F2250 X129.423 Y117.78
M204 S1800
M205 X8 Y8
G1 F1350 X136.929 Y110.275 E43.04104
M204 S3000
M205 X10 Y10
G0 F2250 X136.929 Y109.709
M204 S1800
M205 X8 Y8
G1 F1350 X128.858 Y117.78 E43.23086
M204 S3000
M205 X10 Y10
G0 F2250 X128.292 Y117.78
M204 S1800
M205 X8 Y8
G1 F1350 X136.929 Y109.144 E43.43397
M204 S3000
M205 X10 Y10
G0 F2250 X136.929 Y108.578
M204 S1800
M205 X8 Y8
G1 F1350 X127.726 Y117.78 E43.6504
M204 S3000
M205 X10 Y10
G0 F2250 X127.161 Y117.78
M204 S1800
M205 X8 Y8
G1 F1350 X136.929 Y108.012 E43.88013
M204 S3000
M205 X10 Y10
G0 F2250 X136.929 Y107.446
M204 S1800
M205 X8 Y8
G1 F1350 X126.595 Y117.78 E44.12317
M204 S3000
M205 X10 Y10
G0 F2250 X126.029 Y117.78
M204 S1800
M205 X8 Y8
G1 F1350 X136.929 Y106.881 E44.37951
M204 S3000
M205 X10 Y10
G0 F2250 X136.929 Y106.315
M204 S1800
M205 X8 Y8
G1 F1350 X125.464 Y117.78 E44.64915
M204 S3000
M205 X10 Y10
G0 F2250 X124.899 Y117.779
M204 S1800
M205 X8 Y8
G1 F1350 X136.659 Y106.019 E44.92573
M204 S3000
M205 X10 Y10
G0 F2250 X136.094 Y106.019
M204 S1800
M205 X8 Y8
G1 F1350 X124.333 Y117.779 E45.20232
M204 S3000
M205 X10 Y10
G0 F2250 X123.767 Y117.779
M204 S1800
M205 X8 Y8
G1 F1350 X135.528 Y106.019 E45.47891
M204 S3000
M205 X10 Y10
G0 F2250 X134.962 Y106.019
M204 S1800
M205 X8 Y8
G1 F1350 X123.202 Y117.779 E45.75548
M204 S3000
M205 X10 Y10
G0 F2250 X122.636 Y117.779
M204 S1800
M205 X8 Y8
G1 F1350 X134.396 Y106.019 E46.03206
M204 S3000
M205 X10 Y10
G0 F2250 X133.831 Y106.019
M204 S1800
M205 X8 Y8
G1 F1350 X122.07 Y117.779 E46.30865
M204 S3000
M205 X10 Y10
G0 F2250 X121.504 Y117.779
M204 S1800
M205 X8 Y8
G1 F1350 X133.265 Y106.019 E46.58524
M204 S3000
M205 X10 Y10
G0 F2250 X132.699 Y106.019
M204 S1800
M205 X8 Y8
G1 F1350 X120.939 Y117.779 E46.86181
M204 S3000
M205 X10 Y10
G0 F2250 X120.373 Y117.779
M204 S1800
M205 X8 Y8
G1 F1350 X132.134 Y106.019 E47.1384
M204 S3000
M205 X10 Y10
G0 F2250 X131.568 Y106.019
M204 S1800
M205 X8 Y8
G1 F1350 X119.807 Y117.779 E47.41499
M204 S3000
