;FLAVOR:Marlin
;TIME:2441
;Filament used: 0.923127m
;Layer height: 0.1
;MINX:85.7
;MINY:104.55
;MINZ:0.1
;MAXX:138.3
;MAXY:119.45
;MAXZ:7
;Generated with Cura_SteamEngine 4.2.1
M140 S60
M105
M190 S60
M104 S200
M105
M109 S200
M82 ;absolute extrusion mode
G21 ;metric values
G90 ;absolute positioning
M82 ;set extruder to absolute mode
M107 ;start with the fan off
G28 X0 Y0 ;move X/Y to min endstops
G28 Z0 ;move Z to min endstops
G1 Z15.0 F50 ;move the platform down 15mm
G92 E0 ;zero the extruded length
G1 F200 E3 ;extrude 3mm of feed stock
G92 E0 ;zero the extruded length again
G1 F50
M117 Printing...
G5
M141 S28
G92 E0
G92 E0
G1 F2400 E-6
;LAYER_COUNT:70
;LAYER:0
M106 S255
M204 S3000
M205 X10 Y10
;MESH:lamp.base.ps.cup.stl
G0 F1500 X135.9 Y117.85 Z0.1
M204 S1800
M205 X8 Y8
;TYPE:WALL-INNER
G1 F2400 E0
G1 F1500 X116.17 Y117.85 E0.45936
G1 X114.6 Y117.89 E0.49592
G1 X114.6 Y118.25 E0.5043
G1 X113.4 Y118.25 E0.53224
G1 X113.4 Y117.85 E0.54155
G1 X89.805 Y117.85 E1.09089
G1 X88.1 Y117.875 E1.13059
G1 X88.1 Y118.25 E1.13933
G1 X86.9 Y118.25 E1.16726
G1 X86.9 Y105.75 E1.45829
G1 X137.1 Y105.75 E2.62705
G1 X137.1 Y118.25 E2.91808
G1 X135.9 Y118.25 E2.94602
G1 X135.9 Y117.85 E2.95533
M204 S3000
M205 X10 Y10
G0 X135.34 Y118.41
M204 S1800
M205 X8 Y8
G1 X116.177 Y118.41 E3.40148
G1 X115.16 Y118.436 E3.42517
G1 X115.16 Y118.81 E3.43388
G1 X112.84 Y118.81 E3.48789
G1 X112.84 Y118.41 E3.4972
G1 X89.809 Y118.41 E4.03341
G1 X88.66 Y118.427 E4.06017
G1 X88.66 Y118.81 E4.06909
G1 X86.34 Y118.81 E4.1231
G1 X86.34 Y105.19 E4.4402
G1 X137.66 Y105.19 E5.63504
G1 X137.66 Y118.81 E5.95214
G1 X135.34 Y118.81 E6.00616
G1 X135.34 Y118.41 E6.01547
M204 S3000
M205 X10 Y10
G0 X134.78 Y118.97
M204 S1800
M205 X8 Y8
;TYPE:WALL-OUTER
G1 X116.184 Y118.97 E6.44842
G1 X115.72 Y118.982 E6.45923
G1 X115.72 Y119.37 E6.46826
G1 X112.28 Y119.37 E6.54835
G1 X112.28 Y118.97 E6.55767
G1 X89.813 Y118.97 E7.08074
G1 X89.22 Y118.979 E7.09455
G1 X89.22 Y119.37 E7.10366
G1 X85.78 Y119.37 E7.18375
G1 X85.78 Y104.63 E7.52692
G1 X138.22 Y104.63 E8.74784
G1 X138.22 Y119.37 E9.09101
G1 X134.78 Y119.37 E9.17111
G1 X134.78 Y118.97 E9.18042
M204 S3000
M205 X10 Y10
G0 X134.58 Y118.97
G0 X134.58 Y118.31
G0 X136.45 Y117.7
M204 S1800
M205 X8 Y8
;TYPE:SKIN
G1 X136.45 Y117.3 E9.18973
G1 X116.163 Y117.3 E9.66205
G1 X114.05 Y117.354 E9.71127
G1 X114.05 Y117.7 E9.71932
G1 X113.95 Y117.7 E9.72165
G1 X113.95 Y117.3 E9.73096
G1 X89.801 Y117.3 E10.2932
G1 X87.55 Y117.333 E10.34562
G1 X87.55 Y117.7 E10.35416
G1 X87.45 Y117.7 E10.35649
G1 X87.45 Y106.3 E10.6219
G1 X136.55 Y106.3 E11.76505
G1 X136.55 Y117.7 E12.03047
G1 X136.45 Y117.7 E12.0328
M204 S3000
M205 X10 Y10
G0 X136.289 Y106.986
M204 S1800
M205 X8 Y8
G1 X135.862 Y106.559 E12.04686
M204 S3000
M205 X10 Y10
G0 X135.07 Y106.559
M204 S1800
M205 X8 Y8
G1 X136.289 Y107.778 E12.08699
M204 S3000
M205 X10 Y10
G0 X136.289 Y108.57
M204 S1800
M205 X8 Y8
G1 X134.278 Y106.559 E12.15321
M204 S3000
M205 X10 Y10
G0 X133.486 Y106.559
M204 S1800
M205 X8 Y8
G1 X136.289 Y109.362 E12.2455
M204 S3000
M205 X10 Y10
G0 X136.289 Y110.154
M204 S1800
M205 X8 Y8
G1 X132.694 Y106.559 E12.36387
M204 S3000
M205 X10 Y10
G0 X131.902 Y106.559
M204 S1800
M205 X8 Y8
G1 X136.289 Y110.946 E12.50831
M204 S3000
M205 X10 Y10
G0 X136.289 Y111.738
M204 S1800
M205 X8 Y8
G1 X131.11 Y106.559 E12.67884
M204 S3000
M205 X10 Y10
G0 X130.318 Y106.559
M204 S1800
M205 X8 Y8
G1 X136.289 Y112.53 E12.87544
M204 S3000
M205 X10 Y10
G0 X136.289 Y113.322
M204 S1800
M205 X8 Y8
G1 X129.526 Y106.559 E13.09811
M204 S3000
M205 X10 Y10
G0 X128.734 Y106.559
M204 S1800
M205 X8 Y8
G1 X136.289 Y114.114 E13.34687
M204 S3000
M205 X10 Y10
G0 X136.289 Y114.906
M204 S1800
M205 X8 Y8
G1 X127.942 Y106.559 E13.6217
M204 S3000
M205 X10 Y10
G0 X127.15 Y106.559
M204 S1800
M205 X8 Y8
G1 X136.289 Y115.698 E13.92261
M204 S3000
M205 X10 Y10
G0 X136.289 Y116.49
M204 S1800
M205 X8 Y8
G1 X126.358 Y106.559 E14.2496
M204 S3000
M205 X10 Y10
G0 X125.566 Y106.559
M204 S1800
M205 X8 Y8
G1 X136.046 Y117.039 E14.59466
M204 S3000
M205 X10 Y10
G0 X135.254 Y117.039
M204 S1800
M205 X8 Y8
G1 X124.774 Y106.559 E14.93972
M204 S3000
M205 X10 Y10
G0 X123.982 Y106.559
M204 S1800
M205 X8 Y8
G1 X134.462 Y117.039 E15.28479
M204 S3000
M205 X10 Y10
G0 X133.67 Y117.039
M204 S1800
M205 X8 Y8
G1 X123.19 Y106.559 E15.62985
M204 S3000
M205 X10 Y10
G0 X122.398 Y106.559
M204 S1800
M205 X8 Y8
G1 X132.878 Y117.039 E15.97491
M204 S3000
M205 X10 Y10
G0 X132.086 Y117.039
M204 S1800
M205 X8 Y8
G1 X121.606 Y106.559 E16.31998
M204 S3000
M205 X10 Y10
G0 X120.814 Y106.559
M204 S1800
M205 X8 Y8
G1 X131.294 Y117.039 E16.66504
M204 S3000
M205 X10 Y10
G0 X130.502 Y117.039
M204 S1800
M205 X8 Y8
G1 X120.022 Y106.559 E17.0101
M204 S3000
M205 X10 Y10
G0 X119.23 Y106.559
M204 S1800
M205 X8 Y8
G1 X129.71 Y117.039 E17.35516
M204 S3000
M205 X10 Y10
G0 X128.919 Y117.039
M204 S1800
M205 X8 Y8
G1 X118.438 Y106.559 E17.70024
M204 S3000
M205 X10 Y10
G0 X117.647 Y106.559
M204 S1800
M205 X8 Y8
G1 X128.127 Y117.039 E18.04531
M204 S3000
M205 X10 Y10
G0 X127.335 Y117.039
M204 S1800
M205 X8 Y8
G1 X116.855 Y106.559 E18.39037
M204 S3000
M205 X10 Y10
G0 X116.063 Y106.559
M204 S1800
M205 X8 Y8
G1 X126.543 Y117.039 E18.73543
M204 S3000
M205 X10 Y10
G0 X125.75 Y117.038
M204 S1800
M205 X8 Y8
G1 X115.271 Y106.559 E19.08046
M204 S3000
M205 X10 Y10
G0 X114.479 Y106.559
M204 S1800
M205 X8 Y8
G1 X124.958 Y117.038 E19.42549
M204 S3000
M205 X10 Y10
G0 X124.166 Y117.038
M204 S1800
M205 X8 Y8
G1 X113.687 Y106.559 E19.77052
M204 S3000
M205 X10 Y10
G0 X112.895 Y106.559
M204 S1800
M205 X8 Y8
G1 X123.374 Y117.038 E20.11555
M204 S3000
M205 X10 Y10
G0 X122.582 Y117.038
M204 S1800
M205 X8 Y8
G1 X112.103 Y106.559 E20.46058
M204 S3000
M205 X10 Y10
G0 X111.311 Y106.559
M204 S1800
M205 X8 Y8
G1 X121.79 Y117.038 E20.80561
M204 S3000
M205 X10 Y10
G0 X120.998 Y117.038
M204 S1800
M205 X8 Y8
G1 X110.519 Y106.559 E21.15064
M204 S3000
M205 X10 Y10
G0 X109.727 Y106.559
M204 S1800
M205 X8 Y8
G1 X120.206 Y117.038 E21.49567
M204 S3000
M205 X10 Y10
G0 X119.414 Y117.038
M204 S1800
M205 X8 Y8
G1 X108.935 Y106.559 E21.8407
M204 S3000
M205 X10 Y10
G0 X108.143 Y106.559
M204 S1800
M205 X8 Y8
G1 X118.622 Y117.038 E22.18573
M204 S3000
M205 X10 Y10
G0 X117.83 Y117.038
M204 S1800
M205 X8 Y8
G1 X107.351 Y106.559 E22.53076
M204 S3000
M205 X10 Y10
G0 X106.559 Y106.559
M204 S1800
M205 X8 Y8
G1 X117.038 Y117.038 E22.87579
M204 S3000
M205 X10 Y10
G0 X116.246 Y117.038
M204 S1800
M205 X8 Y8
G1 X105.767 Y106.559 E23.22082
M204 S3000
M205 X10 Y10
G0 X104.975 Y106.559
M204 S1800
M205 X8 Y8
G1 X115.471 Y117.055 E23.56641
M204 S3000
M205 X10 Y10
G0 X114.699 Y117.075
M204 S1800
M205 X8 Y8
G1 X104.183 Y106.559 E23.91266
M204 S3000
M205 X10 Y10
G0 X103.391 Y106.559
M204 S1800
M205 X8 Y8
G1 X113.871 Y117.039 E24.25772
M204 S3000
M205 X10 Y10
G0 X113.079 Y117.039
M204 S1800
M205 X8 Y8
G1 X102.599 Y106.559 E24.60279
M204 S3000
M205 X10 Y10
G0 X101.807 Y106.559
M204 S1800
M205 X8 Y8
G1 X112.287 Y117.039 E24.94785
M204 S3000
M205 X10 Y10
G0 X111.495 Y117.039
M204 S1800
M205 X8 Y8
G1 X101.015 Y106.559 E25.29291
M204 S3000
M205 X10 Y10
G0 X100.223 Y106.559
M204 S1800
M205 X8 Y8
G1 X110.703 Y117.039 E25.63798
M204 S3000
M205 X10 Y10
G0 X109.911 Y117.039
M204 S1800
M205 X8 Y8
G1 X99.431 Y106.559 E25.98304
M204 S3000
M205 X10 Y10
G0 X98.639 Y106.559
M204 S1800
M205 X8 Y8
G1 X109.12 Y117.039 E26.32812
M204 S3000
M205 X10 Y10
G0 X108.328 Y117.039
M204 S1800
M205 X8 Y8
G1 X97.848 Y106.559 E26.67318
M204 S3000
M205 X10 Y10
G0 X97.056 Y106.559
M204 S1800
M205 X8 Y8
G1 X107.536 Y117.039 E27.01824
M204 S3000
M205 X10 Y10
G0 X106.744 Y117.039
M204 S1800
M205 X8 Y8
G1 X96.264 Y106.559 E27.36331
M204 S3000
M205 X10 Y10
G0 X95.472 Y106.559
M204 S1800
M205 X8 Y8
G1 X105.952 Y117.039 E27.70837
M204 S3000
M205 X10 Y10
G0 X105.16 Y117.039
M204 S1800
M205 X8 Y8
G1 X94.68 Y106.559 E28.05343
M204 S3000
M205 X10 Y10
G0 X93.888 Y106.559
M204 S1800
M205 X8 Y8
G1 X104.368 Y117.039 E28.3985
M204 S3000
M205 X10 Y10
G0 X103.576 Y117.039
M204 S1800
M205 X8 Y8
G1 X93.096 Y106.559 E28.74356
M204 S3000
M205 X10 Y10
G0 X92.304 Y106.559
M204 S1800
M205 X8 Y8
G1 X102.784 Y117.039 E29.08862
M204 S3000
M205 X10 Y10
G0 X101.992 Y117.039
M204 S1800
M205 X8 Y8
G1 X91.512 Y106.559 E29.43368
M204 S3000
M205 X10 Y10
G0 X90.72 Y106.559
M204 S1800
M205 X8 Y8
G1 X101.2 Y117.039 E29.77875
M204 S3000
M205 X10 Y10
G0 X100.408 Y117.039
M204 S1800
M205 X8 Y8
G1 X89.928 Y106.559 E30.12381
M204 S3000
M205 X10 Y10
G0 X89.136 Y106.559
M204 S1800
M205 X8 Y8
G1 X99.616 Y117.039 E30.46887
M204 S3000
M205 X10 Y10
G0 X98.824 Y117.039
M204 S1800
M205 X8 Y8
G1 X88.344 Y106.559 E30.81394
M204 S3000
M205 X10 Y10
G0 X87.71 Y106.717
M204 S1800
M205 X8 Y8
G1 X98.032 Y117.039 E31.1538
M204 S3000
M205 X10 Y10
G0 X97.24 Y117.039
M204 S1800
M205 X8 Y8
G1 X87.71 Y107.509 E31.46758
M204 S3000
M205 X10 Y10
G0 X87.71 Y108.301
M204 S1800
M205 X8 Y8
G1 X96.448 Y117.039 E31.75529
M204 S3000
M205 X10 Y10
G0 X95.656 Y117.039
M204 S1800
M205 X8 Y8
G1 X87.71 Y109.093 E32.01692
M204 S3000
M205 X10 Y10
G0 X87.71 Y109.885
M204 S1800
M205 X8 Y8
G1 X94.864 Y117.039 E32.25247
M204 S3000
M205 X10 Y10
G0 X94.072 Y117.039
M204 S1800
M205 X8 Y8
G1 X87.71 Y110.677 E32.46194
M204 S3000
M205 X10 Y10
G0 X87.71 Y111.469
M204 S1800
M205 X8 Y8
G1 X93.28 Y117.039 E32.64534
M204 S3000
M205 X10 Y10
G0 X92.488 Y117.039
M204 S1800
M205 X8 Y8
G1 X87.71 Y112.26 E32.80267
M204 S3000
M205 X10 Y10
G0 X87.71 Y113.052
M204 S1800
M205 X8 Y8
G1 X91.696 Y117.039 E32.93393
M204 S3000
M205 X10 Y10
G0 X90.904 Y117.039
M204 S1800
M205 X8 Y8
G1 X87.71 Y113.844 E33.03912
M204 S3000
M205 X10 Y10
G0 X87.71 Y114.636
M204 S1800
M205 X8 Y8
G1 X90.112 Y117.039 E33.11822
M204 S3000
M205 X10 Y10
G0 X89.327 Y117.045
M204 S1800
M205 X8 Y8
G1 X87.71 Y115.428 E33.17146
M204 S3000
M205 X10 Y10
G0 X87.71 Y116.22
M204 S1800
M205 X8 Y8
G1 X88.546 Y117.057 E33.199
G1 X88.616 Y117.127
M204 S3000
M205 X10 Y10
;MESH:NONMESH
G0 F600 X88.616 Y117.127 Z0.2
G0 F1500 X135.5 Y118.25
;TIME_ELAPSED:71.569692
;LAYER:1
M140 S60
M204 S1800
M205 X8 Y8
;TYPE:WALL-INNER
;MESH:lamp.base.ps.cup.stl
G1 F2250 X115 Y118.25 E33.53992
G1 X115 Y118.65 E33.54657
G1 X113 Y118.65 E33.57983
G1 X113 Y118.25 E33.58648
G1 X89.475 Y118.25 E33.97771
G1 X88.5 Y118.445 E33.99424
G1 X88.5 Y118.65 E33.99765
G1 X86.5 Y118.65 E34.03091
G1 X86.5 Y105.35 E34.25209
G1 X137.5 Y105.35 E35.10022
G1 X137.5 Y118.65 E35.3214
G1 X135.5 Y118.65 E35.35466
G1 X135.5 Y118.25 E35.36132
M204 S3000
M205 X10 Y10
G0 X135.1 Y118.65
M204 S1800
M205 X8 Y8
G1 X115.4 Y118.65 E35.68893
G1 X115.4 Y119.05 E35.69558
G1 X112.6 Y119.05 E35.74214
G1 X112.6 Y118.65 E35.7488
G1 X89.515 Y118.65 E36.1327
G1 X88.9 Y118.773 E36.14313
G1 X88.9 Y119.05 E36.14774
G1 X86.1 Y119.05 E36.1943
G1 X86.1 Y104.95 E36.42879
G1 X137.9 Y104.95 E37.29022
G1 X137.9 Y119.05 E37.52471
G1 X135.1 Y119.05 E37.57127
G1 X135.1 Y118.65 E37.57792
M204 S3000
M205 X10 Y10
G0 X134.7 Y119.05
M204 S1800
M205 X8 Y8
;TYPE:WALL-OUTER
G1 X115.8 Y119.05 E37.89223
G1 X115.8 Y119.45 E37.89888
G1 X112.2 Y119.45 E37.95875
G1 X112.2 Y119.05 E37.9654
G1 X89.555 Y119.05 E38.34199
G1 X89.3 Y119.101 E38.34632
G1 X89.3 Y119.45 E38.35212
G1 X85.7 Y119.45 E38.41199
G1 X85.7 Y104.55 E38.65978
G1 X138.3 Y104.55 E39.53452
G1 X138.3 Y119.45 E39.78231
G1 X134.7 Y119.45 E39.84218
G1 X134.7 Y119.05 E39.84883
M204 S3000
M205 X10 Y10
G0 X134.5 Y119.05
G0 X134.5 Y118.55
G0 X135.89 Y118.26
M204 S1800
M205 X8 Y8
;TYPE:SKIN
G1 F1350 X135.89 Y117.86 E39.85548
G1 X114.61 Y117.86 E40.20937
G1 X114.61 Y118.26 E40.21602
G1 X113.39 Y118.26 E40.23631
G1 X113.39 Y117.86 E40.24296
G1 X89.436 Y117.86 E40.64132
G1 X88.11 Y118.125 E40.6638
G1 X88.11 Y118.26 E40.66605
G1 X86.89 Y118.26 E40.68634
G1 X86.89 Y105.74 E40.89455
G1 X137.11 Y105.74 E41.72971
G1 X137.11 Y118.26 E41.93792
G1 X135.89 Y118.26 E41.95821
M204 S3000
M205 X10 Y10
G0 F2250 X136.929 Y117.629
M204 S1800
M205 X8 Y8
G1 F1350 X136.477 Y118.08 E41.96882
M204 S3000
M205 X10 Y10
G0 F2250 X136.069 Y117.923
M204 S1800
M205 X8 Y8
G1 F1350 X136.929 Y117.063 E41.98905
M204 S3000
M205 X10 Y10
G0 F2250 X136.929 Y116.497
M204 S1800
M205 X8 Y8
G1 F1350 X135.746 Y117.68 E42.01687
M204 S3000
M205 X10 Y10
G0 F2250 X135.181 Y117.68
M204 S1800
M205 X8 Y8
G1 F1350 X136.929 Y115.932 E42.05798
M204 S3000
M205 X10 Y10
G0 F2250 X136.929 Y115.366
M204 S1800
M205 X8 Y8
G1 F1350 X134.615 Y117.68 E42.1124
M204 S3000
M205 X10 Y10
G0 F2250 X134.049 Y117.68
M204 S1800
M205 X8 Y8
G1 F1350 X136.929 Y114.8 E42.18014
M204 S3000
M205 X10 Y10
G0 F2250 X136.929 Y114.235
M204 S1800
M205 X8 Y8
G1 F1350 X133.484 Y117.68 E42.26116
M204 S3000
M205 X10 Y10
G0 F2250 X132.918 Y117.68
M204 S1800
M205 X8 Y8
G1 F1350 X136.929 Y113.669 E42.35549
M204 S3000
M205 X10 Y10
G0 F2250 X136.929 Y113.103
M204 S1800
M205 X8 Y8
G1 F1350 X132.352 Y117.68 E42.46313
M204 S3000
M205 X10 Y10
G0 F2250 X131.787 Y117.68
M204 S1800
M205 X8 Y8
G1 F1350 X136.929 Y112.538 E42.58407
M204 S3000
M205 X10 Y10
G0 F2250 X136.929 Y111.972
M204 S1800
M205 X8 Y8
G1 F1350 X131.221 Y117.68 E42.71831
M204 S3000
M205 X10 Y10
G0 F2250 X130.655 Y117.68
M204 S1800
M205 X8 Y8
G1 F1350 X136.929 Y111.406 E42.86587
M204 S3000
M205 X10 Y10
G0 F2250 X136.929 Y110.841
M204 S1800
M205 X8 Y8
G1 F1350 X130.089 Y117.68 E43.02672
M204 S3000
M205 X10 Y10
G0 F2250 X129.524 Y117.68
M204 S1800
M205 X8 Y8
G1 F1350 X136.929 Y110.275 E43.20087
M204 S3000
M205 X10 Y10
G0 F2250 X136.929 Y109.709
M204 S1800
M205 X8 Y8
G1 F1350 X128.958 Y117.68 E43.38834
M204 S3000
M205 X10 Y10
G0 F2250 X128.392 Y117.68
M204 S1800
M205 X8 Y8
G1 F1350 X136.929 Y109.144 E43.58911
M204 S3000
M205 X10 Y10
G0 F2250 X136.929 Y108.578
M204 S1800
M205 X8 Y8
G1 F1350 X127.827 Y117.68 E43.80317
M204 S3000
M205 X10 Y10
G0 F2250 X127.261 Y117.68
M204 S1800
M205 X8 Y8
G1 F1350 X136.929 Y108.012 E44.03055
M204 S3000
M205 X10 Y10
G0 F2250 X136.929 Y107.446
M204 S1800
M205 X8 Y8
G1 F1350 X126.695 Y117.68 E44.27123
M204 S3000
M205 X10 Y10
G0 F2250 X126.13 Y117.68
M204 S1800
M205 X8 Y8
G1 F1350 X136.929 Y106.881 E44.52521
M204 S3000
M205 X10 Y10
G0 F2250 X136.929 Y106.315
M204 S1800
M205 X8 Y8
G1 F1350 X125.564 Y117.68 E44.7925
M204 S3000
M205 X10 Y10
G0 F2250 X124.998 Y117.68
M204 S1800
M205 X8 Y8
G1 F1350 X136.76 Y105.918 E45.06912
M204 S3000
M205 X10 Y10
G0 F2250 X136.194 Y105.918
M204 S1800
M205 X8 Y8
G1 F1350 X124.433 Y117.68 E45.34573
M204 S3000
M205 X10 Y10
G0 F2250 X123.867 Y117.68
M204 S1800
M205 X8 Y8
G1 F1350 X135.628 Y105.918 E45.62235
M204 S3000
M205 X10 Y10
G0 F2250 X135.063 Y105.918
M204 S1800
M205 X8 Y8
G1 F1350 X123.301 Y117.68 E45.89897
M204 S3000
M205 X10 Y10
G0 F2250 X122.736 Y117.68
M204 S1800
M205 X8 Y8
G1 F1350 X134.497 Y105.918 E46.17558
M204 S3000
M205 X10 Y10
G0 F2250 X133.931 Y105.918
M204 S1800
M205 X8 Y8
G1 F1350 X122.17 Y117.68 E46.4522
M204 S3000
M205 X10 Y10
G0 F2250 X121.604 Y117.68
M204 S1800
M205 X8 Y8
G1 F1350 X133.365 Y105.918 E46.72881
M204 S3000
M205 X10 Y10
G0 F2250 X132.8 Y105.918
M204 S1800
M205 X8 Y8
G1 F1350 X121.039 Y117.68 E47.00542
M204 S3000
M205 X10 Y10
G0 F2250 X120.473 Y117.68
M204 S1800
M205 X8 Y8
G1 F1350 X132.234 Y105.918 E47.28203
M204 S3000
M205 X10 Y10
G0 F2250 X131.668 Y105.918
M204 S1800
M205 X8 Y8
G1 F1350 X119.907 Y117.68 E47.55865
M204 S3000
M205 X10 Y10
G0 F2250 X119.341 Y117.68
M204 S1800
M205 X8 Y8
